;FLAVOR:Marlin
;TIME:9222
;Filament used: 6.19303m
;Layer height: 0.2
;MINX:57.5
;MINY:61.5
;MINZ:0.2
;MAXX:177.5
;MAXY:173.5
;MAXZ:13
;TARGET_MACHINE.NAME:Creality Ender-3
;Generated with Cura_SteamEngine 5.6.0
M140 S50
M105
M190 S50
M104 S200
M105
M109 S200
M82 ;absolute extrusion mode
; Ender 3 Custom Start G-code
G92 E0 ; Reset Extruder
G28 ; Home all axes
G1 Z2.0 F3000 ; Move Z Axis up little to prevent scratching of Heat Bed
G1 X0.1 Y20 Z0.3 F5000.0 ; Move to start position
G1 X0.1 Y200.0 Z0.3 F1500.0 E15 ; Draw the first line
G1 X0.4 Y200.0 Z0.3 F5000.0 ; Move to side a little
G1 X0.4 Y20 Z0.3 F1500.0 E30 ; Draw the second line
G92 E0 ; Reset Extruder
G1 Z2.0 F3000 ; Move Z Axis up little to prevent scratching of Heat Bed
G1 X5 Y20 Z0.3 F5000.0 ; Move over to prevent blob squish
G92 E0
G92 E0
G1 F2700 E-5
;LAYER_COUNT:65
;LAYER:0
M107
G0 F6000 X60.953 Y64.516 Z0.2
;TYPE:SKIRT
G1 F2700 E0
G1 F1200 X61.69 Y63.879 E0.0324
G1 X62.479 Y63.311 E0.06473
G1 X63.316 Y62.813 E0.09713
G1 X64.194 Y62.392 E0.12951
G1 X65.107 Y62.05 E0.16194
G1 X66.045 Y61.79 E0.19432
G1 X67.011 Y61.612 E0.22699
G1 X68.155 Y61.515 E0.26517
G1 X68.812 Y61.5 E0.28703
G1 X95.804 Y61.5 E1.18479
G1 X96.688 Y61.513 E1.21419
G1 X97.659 Y61.572 E1.24655
G1 X98.552 Y61.704 E1.27657
G1 X99.706 Y61.989 E1.31611
G1 X100.654 Y62.279 E1.34908
G1 X101.668 Y62.605 E1.38451
G1 X104.064 Y63.303 E1.46751
G1 X106.522 Y63.941 E1.55197
G1 X108.973 Y64.506 E1.63563
G1 X111.455 Y65.003 E1.71982
G1 X113.884 Y65.42 E1.80179
G1 X116.408 Y65.78 E1.88659
G1 X118.904 Y66.062 E1.97014
G1 X121.406 Y66.277 E2.05366
G1 X123.921 Y66.418 E2.13744
G1 X126.48 Y66.491 E2.22259
G1 X127.781 Y66.5 E2.26586
G1 X157.951 Y66.501 E3.26932
G1 X158.684 Y66.513 E3.2937
G1 X159.656 Y66.572 E3.32609
G1 X160.619 Y66.718 E3.35848
G1 X161.566 Y66.949 E3.39091
G1 X162.454 Y67.249 E3.42208
G1 X163.346 Y67.639 E3.45446
G1 X164.229 Y68.126 E3.488
G1 X164.98 Y68.628 E3.51804
G1 X165.795 Y69.286 E3.55288
G1 X166.493 Y69.964 E3.58525
G1 X167.129 Y70.7 E3.6176
G1 X167.659 Y71.431 E3.64763
G1 X167.959 Y71.913 E3.66652
G1 X168.469 Y72.777 E3.69988
G1 X175.694 Y85.417 E4.18413
G1 X176.122 Y86.192 E4.21357
G1 X176.554 Y87.065 E4.24597
G1 X176.883 Y87.906 E4.276
G1 X177.175 Y88.91 E4.31078
G1 X177.363 Y89.883 E4.34374
G1 X177.477 Y91.219 E4.38834
G1 X177.5 Y92.462 E4.42969
G1 X177.499 Y142.954 E6.10906
G1 X177.487 Y143.673 E6.13298
G1 X177.428 Y144.647 E6.16543
G1 X177.281 Y145.608 E6.19777
G1 X177.05 Y146.556 E6.23022
G1 X176.73 Y147.492 E6.26312
G1 X176.161 Y148.717 E6.30804
G1 X175.565 Y149.806 E6.34933
G1 X168.401 Y162.344 E6.82962
G1 X167.947 Y163.114 E6.85935
G1 X167.453 Y163.871 E6.88942
G1 X166.806 Y164.693 E6.92421
G1 X166.137 Y165.398 E6.95654
G1 X165.463 Y165.998 E6.98655
G1 X164.622 Y166.62 E7.02134
G1 X163.791 Y167.126 E7.0537
G1 X162.919 Y167.558 E7.08607
G1 X162.078 Y167.887 E7.1161
G1 X161.075 Y168.178 E7.15084
G1 X160.118 Y168.366 E7.18328
G1 X159.167 Y168.466 E7.21508
G1 X158.681 Y168.485 E7.23126
G1 X157.83 Y168.499 E7.25957
G1 X127.782 Y168.5 E8.25897
G1 X125.198 Y168.537 E8.34492
G1 X122.63 Y168.646 E8.43041
G1 X120.156 Y168.821 E8.5129
G1 X117.684 Y169.066 E8.59552
G1 X115.121 Y169.394 E8.68146
G1 X112.658 Y169.781 E8.76439
G1 X110.198 Y170.238 E8.84761
G1 X107.737 Y170.766 E8.93132
G1 X105.326 Y171.36 E9.01391
G1 X102.826 Y172.047 E9.10014
G1 X99.849 Y172.967 E9.20378
G1 X98.911 Y173.222 E9.23611
G1 X97.945 Y173.394 E9.26875
G1 X96.827 Y173.485 E9.30605
G1 X96.17 Y173.5 E9.32791
G1 X69.064 Y173.499 E10.22946
G1 X68.331 Y173.488 E10.25384
G1 X67.359 Y173.431 E10.28623
G1 X66.396 Y173.285 E10.31862
G1 X65.45 Y173.056 E10.351
G1 X64.526 Y172.744 E10.38343
G1 X63.636 Y172.352 E10.41578
G1 X62.813 Y171.901 E10.44699
G1 X61.974 Y171.34 E10.48056
G1 X61.27 Y170.774 E10.5106
G1 X60.517 Y170.049 E10.54537
G1 X59.88 Y169.313 E10.57775
G1 X59.35 Y168.582 E10.60778
G1 X58.814 Y167.685 E10.64253
G1 X58.392 Y166.807 E10.67493
G1 X58.05 Y165.895 E10.70733
G1 X57.79 Y164.957 E10.7397
G1 X57.612 Y163.988 E10.77247
G1 X57.514 Y162.809 E10.81182
G1 X57.5 Y162.158 E10.83348
G1 X57.501 Y73.054 E13.79709
G1 X57.512 Y72.33 E13.82117
G1 X57.57 Y71.357 E13.85359
G1 X57.715 Y70.394 E13.88598
G1 X57.935 Y69.481 E13.91722
G1 X58.256 Y68.525 E13.95076
G1 X58.649 Y67.634 E13.98315
G1 X59.1 Y66.812 E14.01433
G1 X59.661 Y65.973 E14.0479
G1 X60.227 Y65.269 E14.07795
G1 X60.953 Y64.516 E14.11273
G0 F6000 X61.215 Y64.818
G1 F1200 X61.924 Y64.203 E14.14395
G1 X62.684 Y63.654 E14.17513
G1 X63.49 Y63.173 E14.20635
G1 X64.335 Y62.766 E14.23755
G1 X65.214 Y62.435 E14.26879
G1 X66.118 Y62.183 E14.3
G1 X67.045 Y62.011 E14.33136
G1 X68.189 Y61.914 E14.36955
G1 X68.821 Y61.9 E14.39057
G1 X95.798 Y61.9 E15.28783
G1 X96.664 Y61.912 E15.31664
G1 X97.601 Y61.968 E15.34786
G1 X98.494 Y62.1 E15.37788
G1 X99.589 Y62.372 E15.41541
G1 X100.532 Y62.66 E15.4482
G1 X101.549 Y62.987 E15.48373
G1 X103.957 Y63.688 E15.56715
G1 X106.432 Y64.331 E15.6522
G1 X108.883 Y64.896 E15.73586
G1 X111.38 Y65.396 E15.82056
G1 X113.828 Y65.816 E15.90317
G1 X116.352 Y66.176 E15.98797
G1 X118.87 Y66.461 E16.07225
G1 X121.372 Y66.675 E16.15577
G1 X123.91 Y66.818 E16.24032
G1 X126.469 Y66.891 E16.32547
G1 X127.778 Y66.9 E16.369
G1 X157.945 Y66.901 E17.37236
G1 X158.66 Y66.912 E17.39615
G1 X159.597 Y66.968 E17.42737
G1 X160.525 Y67.107 E17.45858
G1 X161.438 Y67.328 E17.48982
G1 X162.294 Y67.616 E17.51986
G1 X163.186 Y68.006 E17.55224
G1 X164.007 Y68.459 E17.58343
G1 X164.758 Y68.961 E17.61347
G1 X165.517 Y69.573 E17.6459
G1 X166.191 Y70.226 E17.67711
G1 X166.805 Y70.935 E17.70831
G1 X167.335 Y71.666 E17.73834
G1 X167.615 Y72.116 E17.75597
G1 X168.122 Y72.975 E17.78914
G1 X175.344 Y85.611 E18.27322
G1 X175.764 Y86.37 E18.30207
G1 X176.181 Y87.211 E18.33329
G1 X176.51 Y88.052 E18.36333
G1 X176.782 Y88.987 E18.39572
G1 X176.964 Y89.917 E18.42723
G1 X177.078 Y91.253 E18.47183
G1 X177.1 Y92.462 E18.51205
G1 X177.099 Y142.948 E20.19122
G1 X177.088 Y143.649 E20.21454
G1 X177.032 Y144.587 E20.24579
G1 X176.892 Y145.514 E20.27697
G1 X176.671 Y146.427 E20.30822
G1 X176.367 Y147.323 E20.33969
G1 X175.798 Y148.548 E20.38461
G1 X175.218 Y149.608 E20.4248
G1 X168.057 Y162.141 E20.90489
G1 X167.612 Y162.895 E20.93401
G1 X167.118 Y163.652 E20.96408
G1 X166.516 Y164.418 E20.99648
G1 X165.871 Y165.099 E21.02768
G1 X165.197 Y165.699 E21.05769
G1 X164.414 Y166.279 E21.0901
G1 X163.613 Y166.768 E21.12132
G1 X162.773 Y167.185 E21.15251
G1 X161.932 Y167.514 E21.18254
G1 X160.997 Y167.786 E21.21493
G1 X160.076 Y167.968 E21.24616
G1 X159.151 Y168.066 E21.27709
G1 X158.674 Y168.085 E21.29297
G1 X157.83 Y168.099 E21.32105
G1 X127.776 Y168.1 E22.32065
G1 X125.181 Y168.137 E22.40697
G1 X122.613 Y168.246 E22.49245
G1 X120.125 Y168.422 E22.57541
G1 X117.633 Y168.669 E22.6587
G1 X115.07 Y168.997 E22.74464
G1 X112.596 Y169.386 E22.82794
G1 X110.114 Y169.847 E22.9119
G1 X107.653 Y170.375 E22.99562
G1 X105.22 Y170.974 E23.07896
G1 X102.72 Y171.661 E23.16519
G1 X99.744 Y172.581 E23.26879
G1 X98.84 Y172.828 E23.29996
G1 X97.912 Y172.995 E23.33133
G1 X96.818 Y173.085 E23.36783
G1 X96.17 Y173.1 E23.38939
G1 X69.07 Y173.099 E24.29074
G1 X68.354 Y173.089 E24.31456
G1 X67.418 Y173.035 E24.34574
G1 X66.489 Y172.896 E24.37699
G1 X65.577 Y172.677 E24.40818
G1 X64.687 Y172.378 E24.43941
G1 X63.828 Y172.001 E24.47061
G1 X63.005 Y171.55 E24.50182
G1 X62.225 Y171.028 E24.53304
G1 X61.521 Y170.462 E24.56308
G1 X60.819 Y169.787 E24.59547
G1 X60.204 Y169.078 E24.62669
G1 X59.674 Y168.347 E24.65672
G1 X59.174 Y167.511 E24.68912
G1 X58.766 Y166.666 E24.72033
G1 X58.435 Y165.788 E24.75154
G1 X58.183 Y164.884 E24.78275
G1 X58.011 Y163.955 E24.81418
G1 X57.913 Y162.776 E24.85353
G1 X57.9 Y162.158 E24.87409
G1 X57.901 Y73.06 E27.8375
G1 X57.911 Y72.353 E27.86101
G1 X57.966 Y71.416 E27.89223
G1 X58.104 Y70.488 E27.92344
G1 X58.324 Y69.575 E27.95467
G1 X58.622 Y68.686 E27.98586
G1 X59 Y67.826 E28.0171
G1 X59.451 Y67.004 E28.04829
G1 X59.973 Y66.224 E28.0795
G1 X60.539 Y65.52 E28.10955
G1 X61.215 Y64.818 E28.14196
G0 F6000 X61.477 Y65.12
G1 F1200 X62.159 Y64.527 E28.17202
G1 X62.89 Y63.997 E28.20205
G1 X63.664 Y63.533 E28.23207
G1 X64.477 Y63.14 E28.2621
G1 X65.322 Y62.82 E28.29215
G1 X66.192 Y62.576 E28.32221
G1 X67.079 Y62.41 E28.35222
G1 X68.223 Y62.313 E28.39041
G1 X68.83 Y62.3 E28.4106
G1 X95.793 Y62.3 E29.30739
G1 X96.641 Y62.311 E29.3356
G1 X97.543 Y62.364 E29.36565
G1 X98.436 Y62.496 E29.39568
G1 X99.472 Y62.754 E29.43119
G1 X100.41 Y63.041 E29.46381
G1 X101.43 Y63.369 E29.49945
G1 X103.85 Y64.073 E29.58328
G1 X106.342 Y64.721 E29.66892
G1 X108.793 Y65.286 E29.75257
G1 X111.305 Y65.789 E29.83778
G1 X113.772 Y66.212 E29.92103
G1 X116.296 Y66.572 E30.00583
G1 X118.836 Y66.86 E30.09085
G1 X121.338 Y67.073 E30.17437
G1 X123.899 Y67.218 E30.25969
G1 X126.458 Y67.291 E30.34483
G1 X127.775 Y67.3 E30.38864
G1 X157.939 Y67.301 E31.3919
G1 X158.637 Y67.311 E31.41511
G1 X159.539 Y67.364 E31.44517
G1 X160.432 Y67.496 E31.47519
G1 X161.31 Y67.707 E31.50522
G1 X162.166 Y67.995 E31.53526
G1 X162.993 Y68.357 E31.56529
G1 X163.785 Y68.792 E31.59534
G1 X164.536 Y69.294 E31.62539
G1 X165.239 Y69.861 E31.65543
G1 X165.889 Y70.488 E31.68547
G1 X166.481 Y71.17 E31.7155
G1 X167.011 Y71.901 E31.74553
G1 X167.271 Y72.319 E31.76191
G1 X167.775 Y73.173 E31.79489
G1 X174.994 Y85.805 E32.2788
G1 X175.406 Y86.548 E32.30706
G1 X175.808 Y87.357 E32.3371
G1 X176.137 Y88.198 E32.36714
G1 X176.39 Y89.065 E32.39718
G1 X176.565 Y89.951 E32.42722
G1 X176.679 Y91.287 E32.47181
G1 X176.7 Y92.462 E32.5109
G1 X176.699 Y142.942 E34.18987
G1 X176.689 Y143.626 E34.21262
G1 X176.636 Y144.528 E34.24268
G1 X176.503 Y145.421 E34.27271
G1 X176.292 Y146.299 E34.30274
G1 X176.004 Y147.155 E34.33278
G1 X175.447 Y148.356 E34.37681
G1 X174.871 Y149.41 E34.41676
G1 X167.712 Y161.938 E34.89668
G1 X167.277 Y162.676 E34.92517
G1 X166.783 Y163.433 E34.95523
G1 X166.225 Y164.143 E34.98527
G1 X165.605 Y164.8 E35.01532
G1 X164.931 Y165.4 E35.04533
G1 X164.205 Y165.938 E35.07538
G1 X163.435 Y166.41 E35.10542
G1 X162.627 Y166.812 E35.13544
G1 X161.786 Y167.141 E35.16547
G1 X160.919 Y167.394 E35.19551
G1 X160.033 Y167.57 E35.22556
G1 X159.135 Y167.666 E35.2556
G1 X158.667 Y167.685 E35.27117
G1 X157.83 Y167.699 E35.29902
G1 X127.77 Y167.7 E36.29882
G1 X125.164 Y167.737 E36.3855
G1 X122.596 Y167.846 E36.47099
G1 X120.094 Y168.023 E36.55441
G1 X117.582 Y168.272 E36.63837
G1 X115.019 Y168.6 E36.72431
G1 X112.534 Y168.991 E36.80798
G1 X110.03 Y169.456 E36.89269
G1 X107.569 Y169.984 E36.97641
G1 X105.114 Y170.588 E37.06049
G1 X102.614 Y171.275 E37.14673
G1 X99.638 Y172.195 E37.25033
G1 X98.768 Y172.434 E37.28034
G1 X97.879 Y172.596 E37.31039
G1 X96.809 Y172.685 E37.34611
G1 X96.17 Y172.7 E37.36736
G1 X69.075 Y172.699 E38.26855
G1 X68.377 Y172.69 E38.29177
G1 X67.476 Y172.639 E38.32178
G1 X66.582 Y172.507 E38.35184
G1 X65.704 Y172.298 E38.38186
G1 X64.847 Y172.011 E38.41192
G1 X64.02 Y171.65 E38.44193
G1 X63.227 Y171.217 E38.47198
G1 X62.476 Y170.716 E38.50201
G1 X61.772 Y170.15 E38.53205
G1 X61.121 Y169.524 E38.56209
G1 X60.528 Y168.843 E38.59212
G1 X59.998 Y168.112 E38.62215
G1 X59.534 Y167.337 E38.6522
G1 X59.14 Y166.524 E38.68225
G1 X58.82 Y165.68 E38.71227
G1 X58.576 Y164.81 E38.74232
G1 X58.41 Y163.922 E38.77237
G1 X58.313 Y162.767 E38.81092
G1 X58.3 Y162.158 E38.83118
G1 X58.301 Y73.065 E41.79442
G1 X58.31 Y72.376 E41.81734
G1 X58.362 Y71.474 E41.84739
G1 X58.493 Y70.581 E41.87741
G1 X58.703 Y69.702 E41.90747
G1 X58.989 Y68.846 E41.93749
G1 X59.351 Y68.018 E41.96754
G1 X59.784 Y67.226 E41.99757
G1 X60.285 Y66.475 E42.02759
G1 X60.851 Y65.771 E42.05764
G1 X61.477 Y65.12 E42.08767
G1 F2700 E37.08767
;MESH:base_and_cover.stl
G0 F6000 X68.92 Y71.835
G0 X95.9 Y161.9
;TYPE:WALL-INNER
G1 F2700 E42.08767
G1 F1200 X95.9 Y73.1 E45.04117
G1 X69.1 Y73.1 E45.93255
G1 X69.1 Y161.9 E48.88605
G1 X95.9 Y161.9 E49.77742
G0 F6000 X96.3 Y162.3
;TYPE:WALL-OUTER
G1 F1200 X96.3 Y72.7 E52.75753
G1 X68.7 Y72.7 E53.67551
G1 X68.7 Y162.3 E56.65561
G1 X96.3 Y162.3 E57.57359
G0 F6000 X96.03 Y162.03
G0 X95.8 Y161.54
G0 X95.54 Y161.54
;TYPE:SKIN
G1 F1200 X69.46 Y161.54 E58.44102
G1 X69.46 Y73.46 E61.37057
G1 X95.54 Y73.46 E62.238
G1 X95.54 Y161.54 E65.16755
G0 F6000 X95.8 Y161.54
G0 X70.263 Y161.8
G0 X70.263 Y161.339
G1 F1200 X69.659 Y160.735 E65.19596
G0 F6000 X69.659 Y160.169
G1 F1200 X70.829 Y161.339 E65.25099
G0 F6000 X71.395 Y161.339
G1 F1200 X69.659 Y159.603 E65.33265
G0 F6000 X69.659 Y159.038
G1 F1200 X71.96 Y161.339 E65.44088
G0 F6000 X72.526 Y161.339
G1 F1200 X69.659 Y158.472 E65.57573
G0 F6000 X69.659 Y157.906
G1 F1200 X73.092 Y161.339 E65.73721
G0 F6000 X73.657 Y161.339
G1 F1200 X69.659 Y157.341 E65.92527
G0 F6000 X69.659 Y156.775
G1 F1200 X74.223 Y161.339 E66.13994
G0 F6000 X74.789 Y161.339
G1 F1200 X69.659 Y156.209 E66.38124
G0 F6000 X69.659 Y155.644
G1 F1200 X75.354 Y161.339 E66.64912
G0 F6000 X75.92 Y161.339
G1 F1200 X69.659 Y155.078 E66.94362
G0 F6000 X69.659 Y154.512
G1 F1200 X76.486 Y161.339 E67.26474
G0 F6000 X77.052 Y161.339
G1 F1200 X69.659 Y153.947 E67.61246
G0 F6000 X69.659 Y153.381
G1 F1200 X77.617 Y161.339 E67.98678
G0 F6000 X78.183 Y161.339
G1 F1200 X69.659 Y152.815 E68.38772
G0 F6000 X69.659 Y152.249
G1 F1200 X78.749 Y161.339 E68.81529
G0 F6000 X79.314 Y161.339
G1 F1200 X69.659 Y151.684 E69.26943
G0 F6000 X69.659 Y151.118
G1 F1200 X79.88 Y161.339 E69.75019
G0 F6000 X80.446 Y161.339
G1 F1200 X69.659 Y150.552 E70.25758
G0 F6000 X69.659 Y149.987
G1 F1200 X81.011 Y161.339 E70.79154
G0 F6000 X81.577 Y161.339
G1 F1200 X69.659 Y149.421 E71.35213
G0 F6000 X69.659 Y148.855
G1 F1200 X82.143 Y161.339 E71.93934
G0 F6000 X82.708 Y161.339
G1 F1200 X69.659 Y148.29 E72.55312
G0 F6000 X69.659 Y147.724
G1 F1200 X83.274 Y161.339 E73.19353
G0 F6000 X83.84 Y161.339
G1 F1200 X69.659 Y147.158 E73.86056
G0 F6000 X69.659 Y146.593
G1 F1200 X84.405 Y161.339 E74.55417
G0 F6000 X84.971 Y161.339
G1 F1200 X69.659 Y146.027 E75.2744
G0 F6000 X69.659 Y145.461
G1 F1200 X85.537 Y161.339 E76.02125
G0 F6000 X86.102 Y161.339
G1 F1200 X69.659 Y144.896 E76.79468
G0 F6000 X69.659 Y144.33
G1 F1200 X86.668 Y161.339 E77.59473
G0 F6000 X87.234 Y161.339
G1 F1200 X69.659 Y143.764 E78.4214
G0 F6000 X69.659 Y143.199
G1 F1200 X87.8 Y161.339 E79.27468
G0 F6000 X88.365 Y161.339
G1 F1200 X69.659 Y142.633 E80.15455
G0 F6000 X69.659 Y142.067
G1 F1200 X88.931 Y161.339 E81.06105
G0 F6000 X89.497 Y161.339
G1 F1200 X69.659 Y141.501 E81.99416
G0 F6000 X69.659 Y140.936
G1 F1200 X90.062 Y161.339 E82.95386
G0 F6000 X90.628 Y161.339
G1 F1200 X69.659 Y140.37 E83.94018
G0 F6000 X69.659 Y139.804
G1 F1200 X91.194 Y161.339 E84.95312
G0 F6000 X91.759 Y161.339
G1 F1200 X69.659 Y139.239 E85.99263
G0 F6000 X69.659 Y138.673
G1 F1200 X92.325 Y161.339 E87.05877
G0 F6000 X92.891 Y161.339
G1 F1200 X69.659 Y138.107 E88.15153
G0 F6000 X69.659 Y137.542
G1 F1200 X93.456 Y161.339 E89.27087
G0 F6000 X94.022 Y161.339
G1 F1200 X69.659 Y136.976 E90.41683
G0 F6000 X69.659 Y136.41
G1 F1200 X94.588 Y161.339 E91.58942
G0 F6000 X95.153 Y161.339
G1 F1200 X69.659 Y135.845 E92.78858
G0 F6000 X69.659 Y135.279
G1 F1200 X95.339 Y160.959 E93.99648
G0 F6000 X95.339 Y160.393
G1 F1200 X69.659 Y134.713 E95.20439
G0 F6000 X69.659 Y134.148
G1 F1200 X95.339 Y159.828 E96.4123
G0 F6000 X95.339 Y159.262
G1 F1200 X69.659 Y133.582 E97.62021
G0 F6000 X69.659 Y133.016
G1 F1200 X95.339 Y158.696 E98.82812
G0 F6000 X95.339 Y158.13
G1 F1200 X69.659 Y132.45 E100.03603
G0 F6000 X69.659 Y131.885
G1 F1200 X95.339 Y157.565 E101.24394
G0 F6000 X95.339 Y156.999
G1 F1200 X69.659 Y131.319 E102.45184
G0 F6000 X69.659 Y130.753
