;FLAVOR:Marlin
;TIME:3854
;Filament used: 2.66522m
;Layer height: 0.2
;MINX:92.5
;MINY:61.5
;MINZ:0.2
;MAXX:142.5
;MAXY:173.5
;MAXZ:13
;TARGET_MACHINE.NAME:Creality Ender-3
;Generated with Cura_SteamEngine 5.6.0
M140 S50
M105
M190 S50
M104 S200
M105
M109 S200
M82 ;absolute extrusion mode
; Ender 3 Custom Start G-code
G92 E0 ; Reset Extruder
G28 ; Home all axes
G1 Z2.0 F3000 ; Move Z Axis up little to prevent scratching of Heat Bed
G1 X0.1 Y20 Z0.3 F5000.0 ; Move to start position
G1 X0.1 Y200.0 Z0.3 F1500.0 E15 ; Draw the first line
G1 X0.4 Y200.0 Z0.3 F5000.0 ; Move to side a little
G1 X0.4 Y20 Z0.3 F1500.0 E30 ; Draw the second line
G92 E0 ; Reset Extruder
G1 Z2.0 F3000 ; Move Z Axis up little to prevent scratching of Heat Bed
G1 X5 Y20 Z0.3 F5000.0 ; Move over to prevent blob squish
G92 E0
G92 E0
G1 F2700 E-5
;LAYER_COUNT:65
;LAYER:0
M107
G0 F6000 X94.664 Y65.969 Z0.2
;TYPE:SKIRT
G1 F2700 E0
G1 F1200 X95.231 Y65.265 E0.03007
G1 X95.956 Y64.513 E0.06481
G1 X96.692 Y63.876 E0.09718
G1 X97.424 Y63.346 E0.12724
G1 X98.321 Y62.811 E0.16198
G1 X99.199 Y62.39 E0.19436
G1 X100.112 Y62.048 E0.22679
G1 X101.049 Y61.789 E0.25912
G1 X102.016 Y61.611 E0.29183
G1 X103.155 Y61.515 E0.32985
G1 X103.812 Y61.5 E0.3517
G1 X130.804 Y61.5 E1.24946
G1 X131.684 Y61.513 E1.27873
G1 X132.656 Y61.572 E1.31112
G1 X133.619 Y61.718 E1.34352
G1 X134.566 Y61.949 E1.37594
G1 X135.454 Y62.249 E1.40711
G1 X136.346 Y62.639 E1.43949
G1 X137.229 Y63.126 E1.47303
G1 X137.98 Y63.628 E1.50308
G1 X138.795 Y64.286 E1.53792
G1 X139.493 Y64.964 E1.57028
G1 X140.129 Y65.701 E1.60266
G1 X140.699 Y66.491 E1.63506
G1 X141.161 Y67.267 E1.6651
G1 X141.615 Y68.209 E1.69988
G1 X141.944 Y69.087 E1.73106
G1 X142.213 Y70.059 E1.76461
G1 X142.39 Y71.025 E1.79727
G1 X142.485 Y72.155 E1.83499
G1 X142.5 Y72.83 E1.85744
G1 X142.499 Y161.9 E4.81992
G1 X142.488 Y162.663 E4.8453
G1 X142.431 Y163.636 E4.87772
G1 X142.286 Y164.599 E4.91011
G1 X142.057 Y165.545 E4.94248
G1 X141.746 Y166.469 E4.97491
G1 X141.354 Y167.36 E5.00729
G1 X140.886 Y168.212 E5.03962
G1 X140.364 Y168.993 E5.07086
G1 X139.731 Y169.778 E5.1044
G1 X139.106 Y170.429 E5.13442
G1 X138.317 Y171.117 E5.16924
G1 X137.557 Y171.667 E5.20044
G1 X136.69 Y172.184 E5.23401
G1 X135.812 Y172.606 E5.26641
G1 X134.901 Y172.948 E5.29878
G1 X133.962 Y173.209 E5.33119
G1 X132.996 Y173.387 E5.36386
G1 X131.845 Y173.485 E5.40228
G1 X131.17 Y173.5 E5.42474
G1 X104.064 Y173.499 E6.32629
G1 X103.331 Y173.488 E6.35067
G1 X102.359 Y173.431 E6.38306
G1 X101.396 Y173.285 E6.41545
G1 X100.45 Y173.056 E6.44783
G1 X99.526 Y172.744 E6.48026
G1 X98.636 Y172.352 E6.51261
G1 X97.813 Y171.901 E6.54382
G1 X96.974 Y171.34 E6.57739
G1 X96.27 Y170.774 E6.60743
G1 X95.517 Y170.049 E6.6422
G1 X94.88 Y169.313 E6.67458
G1 X94.35 Y168.582 E6.70461
G1 X93.814 Y167.685 E6.73936
G1 X93.392 Y166.807 E6.77176
G1 X93.05 Y165.895 E6.80416
G1 X92.79 Y164.957 E6.83653
G1 X92.612 Y163.988 E6.8693
G1 X92.514 Y162.809 E6.90865
G1 X92.5 Y162.158 E6.93031
G1 X92.501 Y73.025 E9.89488
G1 X92.512 Y72.325 E9.91817
G1 X92.57 Y71.352 E9.95059
G1 X92.716 Y70.389 E9.98298
G1 X92.946 Y69.443 E10.01536
G1 X93.259 Y68.52 E10.04778
G1 X93.651 Y67.63 E10.08013
G1 X94.121 Y66.777 E10.11252
G1 X94.664 Y65.969 E10.1449
G0 F6000 X94.976 Y66.22
G1 F1200 X95.543 Y65.516 E10.17496
G1 X96.218 Y64.815 E10.20733
G1 X96.927 Y64.2 E10.23855
G1 X97.659 Y63.67 E10.2686
G1 X98.495 Y63.171 E10.30099
G1 X99.34 Y62.764 E10.33218
G1 X100.219 Y62.433 E10.36342
G1 X101.122 Y62.182 E10.39459
G1 X102.05 Y62.01 E10.42598
G1 X103.189 Y61.914 E10.464
G1 X103.821 Y61.9 E10.48503
G1 X130.798 Y61.9 E11.38229
G1 X131.66 Y61.912 E11.41096
G1 X132.597 Y61.968 E11.44218
G1 X133.525 Y62.107 E11.47339
G1 X134.438 Y62.328 E11.50463
G1 X135.294 Y62.616 E11.53467
G1 X136.186 Y63.006 E11.56705
G1 X137.007 Y63.459 E11.59824
G1 X137.758 Y63.961 E11.62828
G1 X138.517 Y64.573 E11.66071
G1 X139.191 Y65.226 E11.69193
G1 X139.805 Y65.935 E11.72312
G1 X140.355 Y66.696 E11.75435
G1 X140.817 Y67.472 E11.78439
G1 X141.24 Y68.349 E11.81677
G1 X141.569 Y69.227 E11.84796
G1 X141.82 Y70.132 E11.87919
G1 X141.991 Y71.059 E11.91055
G1 X142.086 Y72.189 E11.94826
G1 X142.1 Y72.83 E11.96959
G1 X142.099 Y161.895 E14.9319
G1 X142.089 Y162.64 E14.95668
G1 X142.035 Y163.577 E14.9879
G1 X141.897 Y164.506 E15.01914
G1 X141.678 Y165.418 E15.05033
G1 X141.38 Y166.308 E15.08155
G1 X141.003 Y167.168 E15.11278
G1 X140.553 Y167.99 E15.14395
G1 X140.031 Y168.771 E15.17519
G1 X139.442 Y169.501 E15.20639
G1 X138.817 Y170.152 E15.23641
G1 X138.082 Y170.793 E15.26884
G1 X137.322 Y171.343 E15.30005
G1 X136.516 Y171.824 E15.33126
G1 X135.671 Y172.232 E15.36247
G1 X134.793 Y172.563 E15.39368
G1 X133.889 Y172.816 E15.42491
G1 X132.962 Y172.988 E15.45626
G1 X131.811 Y173.086 E15.49468
G1 X131.17 Y173.1 E15.51601
G1 X104.07 Y173.099 E16.41736
G1 X103.354 Y173.089 E16.44118
G1 X102.418 Y173.035 E16.47236
G1 X101.489 Y172.896 E16.5036
G1 X100.577 Y172.677 E16.5348
G1 X99.687 Y172.378 E16.56602
G1 X98.828 Y172.001 E16.59723
G1 X98.005 Y171.55 E16.62844
G1 X97.225 Y171.028 E16.65966
G1 X96.521 Y170.462 E16.6897
G1 X95.819 Y169.787 E16.72209
G1 X95.204 Y169.078 E16.75331
G1 X94.674 Y168.347 E16.78334
G1 X94.174 Y167.511 E16.81574
G1 X93.766 Y166.666 E16.84695
G1 X93.435 Y165.788 E16.87816
G1 X93.183 Y164.884 E16.90937
G1 X93.011 Y163.955 E16.94079
G1 X92.913 Y162.776 E16.98014
G1 X92.9 Y162.158 E17.0007
G1 X92.901 Y73.031 E19.96508
G1 X92.911 Y72.348 E19.9878
G1 X92.966 Y71.411 E20.01902
G1 X93.105 Y70.483 E20.05023
G1 X93.325 Y69.571 E20.08143
G1 X93.625 Y68.681 E20.11267
G1 X94.002 Y67.822 E20.14387
G1 X94.453 Y67 E20.17505
G1 X94.976 Y66.22 E20.20629
G0 F6000 X95.288 Y66.471
G1 F1200 X95.855 Y65.767 E20.23635
G1 X96.481 Y65.117 E20.26637
G1 X97.162 Y64.524 E20.2964
G1 X97.894 Y63.994 E20.32646
G1 X98.669 Y63.531 E20.35649
G1 X99.482 Y63.138 E20.38652
G1 X100.327 Y62.818 E20.41657
G1 X101.196 Y62.575 E20.44658
G1 X102.084 Y62.409 E20.47663
G1 X103.223 Y62.313 E20.51465
G1 X103.83 Y62.3 E20.53484
G1 X130.793 Y62.3 E21.43163
G1 X131.637 Y62.311 E21.45971
G1 X132.539 Y62.364 E21.48976
G1 X133.432 Y62.496 E21.51978
G1 X134.31 Y62.707 E21.54982
G1 X135.166 Y62.995 E21.57986
G1 X135.993 Y63.357 E21.60988
G1 X136.785 Y63.792 E21.63994
G1 X137.536 Y64.294 E21.66998
G1 X138.239 Y64.861 E21.70002
G1 X138.889 Y65.488 E21.73006
G1 X139.481 Y66.17 E21.7601
G1 X140.011 Y66.901 E21.79013
G1 X140.473 Y67.677 E21.82017
G1 X140.866 Y68.49 E21.8502
G1 X141.184 Y69.335 E21.88023
G1 X141.427 Y70.205 E21.91027
G1 X141.592 Y71.093 E21.94031
G1 X141.687 Y72.223 E21.97803
G1 X141.7 Y72.83 E21.99822
G1 X141.699 Y161.89 E24.96037
G1 X141.69 Y162.617 E24.98455
G1 X141.639 Y163.519 E25.0146
G1 X141.508 Y164.413 E25.04465
G1 X141.299 Y165.291 E25.07467
G1 X141.013 Y166.148 E25.10472
G1 X140.652 Y166.976 E25.13476
G1 X140.22 Y167.768 E25.16477
G1 X139.719 Y168.52 E25.19482
G1 X139.153 Y169.224 E25.22487
G1 X138.528 Y169.875 E25.25488
G1 X137.847 Y170.469 E25.28494
G1 X137.116 Y171 E25.31499
G1 X136.342 Y171.464 E25.34501
G1 X135.529 Y171.858 E25.37505
G1 X134.685 Y172.178 E25.40508
G1 X133.815 Y172.423 E25.43514
G1 X132.928 Y172.589 E25.46515
G1 X131.777 Y172.687 E25.50357
G1 X131.17 Y172.7 E25.52377
G1 X104.075 Y172.699 E26.42495
G1 X103.377 Y172.69 E26.44817
G1 X102.476 Y172.639 E26.47818
G1 X101.582 Y172.507 E26.50824
G1 X100.704 Y172.298 E26.53826
G1 X99.847 Y172.011 E26.56832
G1 X99.02 Y171.65 E26.59833
G1 X98.227 Y171.217 E26.62838
G1 X97.476 Y170.716 E26.65841
G1 X96.772 Y170.15 E26.68845
G1 X96.121 Y169.524 E26.71849
G1 X95.528 Y168.843 E26.74852
G1 X94.998 Y168.112 E26.77856
G1 X94.534 Y167.337 E26.8086
G1 X94.14 Y166.524 E26.83865
G1 X93.82 Y165.68 E26.86867
G1 X93.576 Y164.81 E26.89872
G1 X93.41 Y163.922 E26.92877
G1 X93.313 Y162.767 E26.96732
G1 X93.3 Y162.158 E26.98758
G1 X93.301 Y73.036 E29.95179
G1 X93.31 Y72.371 E29.97391
G1 X93.362 Y71.469 E30.00396
G1 X93.494 Y70.576 E30.03398
G1 X93.704 Y69.698 E30.06401
G1 X93.991 Y68.841 E30.09407
G1 X94.353 Y68.014 E30.12409
G1 X94.786 Y67.222 E30.15412
G1 X95.288 Y66.471 E30.18416
G1 F2700 E25.18416
;MESH:cover.stl
G0 F6000 X102.835 Y72.92
G0 X130.9 Y161.9
;TYPE:WALL-INNER
G1 F2700 E30.18416
G1 F1200 X130.9 Y73.1 E33.13766
G1 X104.1 Y73.1 E34.02903
G1 X104.1 Y161.9 E36.98253
G1 X130.9 Y161.9 E37.8739
G0 F6000 X131.3 Y162.3
;TYPE:WALL-OUTER
G1 F1200 X131.3 Y72.7 E40.85401
G1 X103.7 Y72.7 E41.77199
G1 X103.7 Y162.3 E44.7521
G1 X131.3 Y162.3 E45.67008
G0 F6000 X131.03 Y162.03
G0 X130.8 Y161.54
G0 X130.54 Y161.54
;TYPE:SKIN
G1 F1200 X104.46 Y161.54 E46.5375
G1 X104.46 Y73.46 E49.46706
G1 X130.54 Y73.46 E50.33448
G1 X130.54 Y161.54 E53.26403
G0 F6000 X130.8 Y161.54
G0 X104.77 Y161.8
G0 X104.77 Y161.339
G1 F1200 X104.659 Y161.228 E53.26926
G0 F6000 X104.659 Y160.662
G1 F1200 X105.336 Y161.339 E53.3011
G0 F6000 X105.901 Y161.339
G1 F1200 X104.659 Y160.096 E53.35954
G0 F6000 X104.659 Y159.531
G1 F1200 X106.467 Y161.339 E53.44459
G0 F6000 X107.033 Y161.339
G1 F1200 X104.659 Y158.965 E53.55625
G0 F6000 X104.659 Y158.399
G1 F1200 X107.599 Y161.339 E53.69454
G0 F6000 X108.164 Y161.339
G1 F1200 X104.659 Y157.834 E53.8594
G0 F6000 X104.659 Y157.268
G1 F1200 X108.73 Y161.339 E54.05089
G0 F6000 X109.296 Y161.339
G1 F1200 X104.659 Y156.702 E54.269
G0 F6000 X104.659 Y156.136
G1 F1200 X109.861 Y161.339 E54.51371
G0 F6000 X110.427 Y161.339
G1 F1200 X104.659 Y155.571 E54.78502
G0 F6000 X104.659 Y155.005
G1 F1200 X110.993 Y161.339 E55.08295
G0 F6000 X111.558 Y161.339
G1 F1200 X104.659 Y154.439 E55.40748
G0 F6000 X104.659 Y153.874
G1 F1200 X112.124 Y161.339 E55.75861
G0 F6000 X112.69 Y161.339
G1 F1200 X104.659 Y153.308 E56.13637
G0 F6000 X104.659 Y152.742
G1 F1200 X113.255 Y161.339 E56.54072
G0 F6000 X113.821 Y161.339
G1 F1200 X104.659 Y152.177 E56.97167
G0 F6000 X104.659 Y151.611
G1 F1200 X114.387 Y161.339 E57.42925
G0 F6000 X114.952 Y161.339
G1 F1200 X104.659 Y151.045 E57.91342
G0 F6000 X104.659 Y150.48
G1 F1200 X115.518 Y161.339 E58.4242
G0 F6000 X116.084 Y161.339
G1 F1200 X104.659 Y149.914 E58.96159
G0 F6000 X104.659 Y149.348
G1 F1200 X116.649 Y161.339 E59.52559
G0 F6000 X117.215 Y161.339
G1 F1200 X104.659 Y148.783 E60.11619
G0 F6000 X104.659 Y148.217
G1 F1200 X117.781 Y161.339 E60.73341
G0 F6000 X118.347 Y161.339
G1 F1200 X104.659 Y147.651 E61.37725
G0 F6000 X104.659 Y147.085
G1 F1200 X118.912 Y161.339 E62.04769
G0 F6000 X119.478 Y161.339
G1 F1200 X104.659 Y146.52 E62.74473
G0 F6000 X104.659 Y145.954
G1 F1200 X120.044 Y161.339 E63.46839
G0 F6000 X120.609 Y161.339
G1 F1200 X104.659 Y145.388 E64.21865
G0 F6000 X104.659 Y144.823
G1 F1200 X121.175 Y161.339 E64.99552
G0 F6000 X121.741 Y161.339
G1 F1200 X104.659 Y144.257 E65.799
G0 F6000 X104.659 Y143.691
G1 F1200 X122.306 Y161.339 E66.62909
G0 F6000 X122.872 Y161.339
G1 F1200 X104.659 Y143.126 E67.48577
G0 F6000 X104.659 Y142.56
G1 F1200 X123.438 Y161.339 E68.36908
G0 F6000 X124.003 Y161.339
G1 F1200 X104.659 Y141.994 E69.27898
G0 F6000 X104.659 Y141.429
G1 F1200 X124.569 Y161.339 E70.21549
G0 F6000 X125.135 Y161.339
G1 F1200 X104.659 Y140.863 E71.17862
G0 F6000 X104.659 Y140.297
G1 F1200 X125.7 Y161.339 E72.16834
G0 F6000 X126.266 Y161.339
G1 F1200 X104.659 Y139.732 E73.18467
G0 F6000 X104.659 Y139.166
G1 F1200 X126.832 Y161.339 E74.22762
G0 F6000 X127.398 Y161.339
G1 F1200 X104.659 Y138.6 E75.29719
G0 F6000 X104.659 Y138.035
G1 F1200 X127.963 Y161.339 E76.39334
G0 F6000 X128.529 Y161.339
G1 F1200 X104.659 Y137.469 E77.51611
G0 F6000 X104.659 Y136.903
G1 F1200 X129.095 Y161.339 E78.66551
G0 F6000 X129.66 Y161.339
G1 F1200 X104.659 Y136.337 E79.8415
G0 F6000 X104.659 Y135.772
G1 F1200 X130.226 Y161.339 E81.04409
G0 F6000 X130.339 Y160.886
G1 F1200 X104.659 Y135.206 E82.252
G0 F6000 X104.659 Y134.64
G1 F1200 X130.339 Y160.32 E83.45991
G0 F6000 X130.339 Y159.755
G1 F1200 X104.659 Y134.075 E84.66782
G0 F6000 X104.659 Y133.509
G1 F1200 X130.339 Y159.189 E85.87573
G0 F6000 X130.339 Y158.623
G1 F1200 X104.659 Y132.943 E87.08364
G0 F6000 X104.659 Y132.378
G1 F1200 X130.339 Y158.058 E88.29155
G0 F6000 X130.339 Y157.492
G1 F1200 X104.659 Y131.812 E89.49945
G0 F6000 X104.659 Y131.246
G1 F1200 X130.339 Y156.926 E90.70736
G0 F6000 X130.339 Y156.361
G1 F1200 X104.659 Y130.681 E91.91527
G0 F6000 X104.659 Y130.115
G1 F1200 X130.339 Y155.795 E93.12318
G0 F6000 X130.339 Y155.229
G1 F1200 X104.659 Y129.549 E94.33109
G0 F6000 X104.659 Y128.984
G1 F1200 X130.339 Y154.664 E95.539
G0 F6000 X130.339 Y154.098
G1 F1200 X104.659 Y128.418 E96.7469
G0 F6000 X104.659 Y127.852
G1 F1200 X130.339 Y153.532 E97.95481
G0 F6000 X130.339 Y152.966
G1 F1200 X104.659 Y127.286 E99.16272
G0 F6000 X104.659 Y126.721
G1 F1200 X130.339 Y152.401 E100.37063
G0 F6000 X130.339 Y151.835
G1 F1200 X104.659 Y126.155 E101.57854
G0 F6000 X104.659 Y125.589
G1 F1200 X130.339 Y151.269 E102.78645
G0 F6000 X130.339 Y150.704
G1 F1200 X104.659 Y125.024 E103.99436
G0 F6000 X104.659 Y124.458
G1 F1200 X130.339 Y150.138 E105.20226
G0 F6000 X130.339 Y149.572
G1 F1200 X104.659 Y123.892 E106.41017
G0 F6000 X104.659 Y123.327
G1 F1200 X130.339 Y149.007 E107.61808
G0 F6000 X130.339 Y148.441
G1 F1200 X104.659 Y122.761 E108.82599
G0 F6000 X104.659 Y122.195
G1 F1200 X130.339 Y147.875 E110.0339
G0 F6000 X130.339 Y147.31
G1 F1200 X104.659 Y121.63 E111.24181
G0 F6000 X104.659 Y121.064
G1 F1200 X130.339 Y146.744 E112.44971
G0 F6000 X130.339 Y146.178
G1 F1200 X104.659 Y120.498 E113.65762
G0 F6000 X104.659 Y119.933
G1 F1200 X130.339 Y145.613 E114.86553
G0 F6000 X130.339 Y145.047
G1 F1200 X104.659 Y119.367 E116.07344
G0 F6000 X104.659 Y118.801
G1 F1200 X130.339 Y144.481 E117.28135
G0 F6000 X130.339 Y143.916
G1 F1200 X104.659 Y118.236 E118.48926
G0 F6000 X104.659 Y117.67
G1 F1200 X130.339 Y143.35 E119.69717
G0 F6000 X130.339 Y142.784
G1 F1200 X104.659 Y117.104 E120.90507
G0 F6000 X104.659 Y116.538
G1 F1200 X130.339 Y142.218 E122.11298
G0 F6000 X130.339 Y141.653
G1 F1200 X104.659 Y115.973 E123.32089
G0 F6000 X104.659 Y115.407
G1 F1200 X130.339 Y141.087 E124.5288
G0 F6000 X130.339 Y140.521
G1 F1200 X104.659 Y114.841 E125.73671
G0 F6000 X104.659 Y114.276
G1 F1200 X130.339 Y139.956 E126.94462
G0 F6000 X130.339 Y139.39
G1 F1200 X104.659 Y113.71 E128.15252
G0 F6000 X104.659 Y113.144
G1 F1200 X130.339 Y138.824 E129.36043
G0 F6000 X130.339 Y138.259
G1 F1200 X104.659 Y112.579 E130.56834
G0 F6000 X104.659 Y112.013
G1 F1200 X130.339 Y137.693 E131.77625
G0 F6000 X130.339 Y137.127
G1 F1200 X104.659 Y111.447 E132.98416
G0 F6000 X104.659 Y110.882
G1 F1200 X130.339 Y136.562 E134.19207
G0 F6000 X130.339 Y135.996
G1 F1200 X104.659 Y110.316 E135.39998
G0 F6000 X104.659 Y109.75
G1 F1200 X130.339 Y135.43 E136.60788
G0 F6000 X130.339 Y134.865
G1 F1200 X104.659 Y109.185 E137.81579
G0 F6000 X104.659 Y108.619
G1 F1200 X130.339 Y134.299 E139.0237
G0 F6000 X130.339 Y133.733
G1 F1200 X104.659 Y108.053 E140.23161
G0 F6000 X104.659 Y107.488
G1 F1200 X130.339 Y133.168 E141.43952
G0 F6000 X130.339 Y132.602
G1 F1200 X104.659 Y106.922 E142.64743
G0 F6000 X104.659 Y106.356
G1 F1200 X130.339 Y132.036 E143.85533
G0 F6000 X130.339 Y131.47
G1 F1200 X104.659 Y105.79 E145.06324
G0 F6000 X104.659 Y105.225
G1 F1200 X130.339 Y130.905 E146.27115
G0 F6000 X130.339 Y130.339
G1 F1200 X104.659 Y104.659 E147.47906
G0 F6000 X104.659 Y104.093
G1 F1200 X130.339 Y129.773 E148.68697
G0 F6000 X130.339 Y129.208
G1 F1200 X104.659 Y103.528 E149.89488
G0 F6000 X104.659 Y102.962
G1 F1200 X130.339 Y128.642 E151.10279
G0 F6000 X130.339 Y128.076
G1 F1200 X104.659 Y102.396 E152.31069
G0 F6000 X104.659 Y101.831
G1 F1200 X130.339 Y127.511 E153.5186
G0 F6000 X130.339 Y126.945
G1 F1200 X104.659 Y101.265 E154.72651
