;FLAVOR:Marlin
;TIME:1528
;Filament used: 0.979247m
;Layer height: 0.2
;MINX:91.5
;MINY:95.5
;MINZ:0.2
;MAXX:143.5
;MAXY:139.5
;MAXZ:10
;TARGET_MACHINE.NAME:Creality Ender-3
;Generated with Cura_SteamEngine 5.6.0
M140 S50
M105
M190 S50
M104 S200
M105
M109 S200
M82 ;absolute extrusion mode
; Ender 3 Custom Start G-code
G92 E0 ; Reset Extruder
G28 ; Home all axes
G1 Z2.0 F3000 ; Move Z Axis up little to prevent scratching of Heat Bed
G1 X0.1 Y20 Z0.3 F5000.0 ; Move to start position
G1 X0.1 Y200.0 Z0.3 F1500.0 E15 ; Draw the first line
G1 X0.4 Y200.0 Z0.3 F5000.0 ; Move to side a little
G1 X0.4 Y20 Z0.3 F1500.0 E30 ; Draw the second line
G92 E0 ; Reset Extruder
G1 Z2.0 F3000 ; Move Z Axis up little to prevent scratching of Heat Bed
G1 X5 Y20 Z0.3 F5000.0 ; Move over to prevent blob squish
G92 E0
G92 E0
G1 F2700 E-5
;LAYER_COUNT:50
;LAYER:0
M107
G0 F6000 X94.956 Y98.513 Z0.2
;TYPE:SKIRT
G1 F2700 E0
G1 F1200 X95.692 Y97.876 E0.03237
G1 X96.424 Y97.346 E0.06243
G1 X97.321 Y96.811 E0.09717
G1 X98.199 Y96.39 E0.12956
G1 X99.112 Y96.048 E0.16198
G1 X100.049 Y95.789 E0.19432
G1 X101.016 Y95.611 E0.22702
G1 X102.155 Y95.515 E0.26504
G1 X102.812 Y95.5 E0.2869
G1 X131.804 Y95.5 E1.25117
G1 X132.684 Y95.513 E1.28045
G1 X133.656 Y95.572 E1.31283
G1 X134.619 Y95.718 E1.34523
G1 X135.566 Y95.949 E1.37765
G1 X136.454 Y96.249 E1.40882
G1 X137.346 Y96.639 E1.4412
G1 X138.229 Y97.126 E1.47474
G1 X138.98 Y97.628 E1.50479
G1 X139.795 Y98.286 E1.53963
G1 X140.493 Y98.964 E1.57199
G1 X141.129 Y99.701 E1.60437
G1 X141.699 Y100.491 E1.63677
G1 X142.161 Y101.267 E1.66681
G1 X142.615 Y102.209 E1.70159
G1 X142.944 Y103.087 E1.73277
G1 X143.213 Y104.059 E1.76632
G1 X143.39 Y105.025 E1.79898
G1 X143.485 Y106.155 E1.8367
G1 X143.5 Y106.83 E1.85916
G1 X143.499 Y127.9 E2.55995
G1 X143.488 Y128.663 E2.58533
G1 X143.431 Y129.636 E2.61774
G1 X143.286 Y130.599 E2.65013
G1 X143.057 Y131.545 E2.68251
G1 X142.746 Y132.469 E2.71493
G1 X142.354 Y133.36 E2.74731
G1 X141.886 Y134.212 E2.77964
G1 X141.364 Y134.993 E2.81089
G1 X140.731 Y135.778 E2.84443
G1 X140.106 Y136.429 E2.87444
G1 X139.317 Y137.117 E2.90926
G1 X138.557 Y137.667 E2.94046
G1 X137.69 Y138.184 E2.97404
G1 X136.812 Y138.606 E3.00644
G1 X135.901 Y138.948 E3.0388
G1 X134.962 Y139.209 E3.07122
G1 X133.996 Y139.387 E3.10389
G1 X132.845 Y139.485 E3.14231
G1 X132.17 Y139.5 E3.16476
G1 X103.064 Y139.499 E4.13283
G1 X102.331 Y139.488 E4.15722
G1 X101.359 Y139.431 E4.1896
G1 X100.396 Y139.285 E4.222
G1 X99.45 Y139.056 E4.25437
G1 X98.526 Y138.744 E4.28681
G1 X97.636 Y138.352 E4.31915
G1 X96.813 Y137.901 E4.35037
G1 X95.974 Y137.34 E4.38393
G1 X95.27 Y136.774 E4.41398
G1 X94.517 Y136.049 E4.44874
G1 X93.88 Y135.313 E4.48112
G1 X93.35 Y134.582 E4.51115
G1 X92.814 Y133.685 E4.54591
G1 X92.392 Y132.807 E4.57831
G1 X92.05 Y131.895 E4.6107
G1 X91.79 Y130.957 E4.64308
G1 X91.612 Y129.988 E4.67584
G1 X91.514 Y128.809 E4.71519
G1 X91.5 Y128.158 E4.73685
G1 X91.501 Y107.025 E5.43974
G1 X91.512 Y106.325 E5.46302
G1 X91.57 Y105.352 E5.49544
G1 X91.716 Y104.389 E5.52784
G1 X91.946 Y103.443 E5.56022
G1 X92.259 Y102.52 E5.59263
G1 X92.651 Y101.63 E5.62498
G1 X93.121 Y100.777 E5.65737
G1 X93.664 Y99.969 E5.68975
G1 X94.231 Y99.265 E5.71982
G1 X94.956 Y98.513 E5.75456
G0 F6000 X95.218 Y98.815
G1 F1200 X95.927 Y98.2 E5.78578
G1 X96.659 Y97.67 E5.81583
G1 X97.495 Y97.171 E5.84822
G1 X98.34 Y96.764 E5.87941
G1 X99.219 Y96.433 E5.91065
G1 X100.122 Y96.182 E5.94182
G1 X101.05 Y96.01 E5.97321
G1 X102.189 Y95.914 E6.01123
G1 X102.821 Y95.9 E6.03226
G1 X131.798 Y95.9 E6.99604
G1 X132.66 Y95.912 E7.02471
G1 X133.597 Y95.968 E7.05593
G1 X134.525 Y96.107 E7.08714
G1 X135.438 Y96.328 E7.11838
G1 X136.294 Y96.616 E7.14842
G1 X137.186 Y97.006 E7.1808
G1 X138.007 Y97.459 E7.21199
G1 X138.758 Y97.961 E7.24203
G1 X139.517 Y98.573 E7.27446
G1 X140.191 Y99.226 E7.30568
G1 X140.805 Y99.935 E7.33687
G1 X141.355 Y100.696 E7.3681
G1 X141.817 Y101.472 E7.39814
G1 X142.24 Y102.349 E7.43052
G1 X142.569 Y103.227 E7.46171
G1 X142.82 Y104.132 E7.49294
G1 X142.991 Y105.059 E7.5243
G1 X143.086 Y106.189 E7.56201
G1 X143.1 Y106.83 E7.58334
G1 X143.099 Y127.895 E8.28396
G1 X143.089 Y128.64 E8.30874
G1 X143.035 Y129.577 E8.33996
G1 X142.897 Y130.506 E8.3712
G1 X142.678 Y131.418 E8.40239
G1 X142.38 Y132.308 E8.43361
G1 X142.003 Y133.168 E8.46484
G1 X141.553 Y133.99 E8.49601
G1 X141.031 Y134.771 E8.52725
G1 X140.442 Y135.501 E8.55845
G1 X139.817 Y136.152 E8.58847
G1 X139.082 Y136.793 E8.6209
G1 X138.322 Y137.343 E8.65211
G1 X137.516 Y137.824 E8.68333
G1 X136.671 Y138.232 E8.71454
G1 X135.793 Y138.563 E8.74574
G1 X134.889 Y138.816 E8.77697
G1 X133.962 Y138.988 E8.80832
G1 X132.811 Y139.086 E8.84675
G1 X132.17 Y139.1 E8.86807
G1 X103.07 Y139.099 E9.83594
G1 X102.354 Y139.089 E9.85976
G1 X101.418 Y139.035 E9.89094
G1 X100.489 Y138.896 E9.92218
G1 X99.577 Y138.677 E9.95338
G1 X98.687 Y138.378 E9.98461
G1 X97.828 Y138.001 E10.01581
G1 X97.005 Y137.55 E10.04702
G1 X96.225 Y137.028 E10.07824
G1 X95.521 Y136.462 E10.10828
G1 X94.819 Y135.787 E10.14067
G1 X94.204 Y135.078 E10.17189
G1 X93.674 Y134.347 E10.20192
G1 X93.174 Y133.511 E10.23432
G1 X92.766 Y132.666 E10.26553
G1 X92.435 Y131.788 E10.29674
G1 X92.183 Y130.884 E10.32795
G1 X92.011 Y129.955 E10.35937
G1 X91.913 Y128.776 E10.39872
G1 X91.9 Y128.158 E10.41928
G1 X91.901 Y107.031 E11.12197
G1 X91.911 Y106.348 E11.14469
G1 X91.966 Y105.411 E11.17591
G1 X92.105 Y104.483 E11.20712
G1 X92.325 Y103.571 E11.23832
G1 X92.625 Y102.681 E11.26956
G1 X93.002 Y101.822 E11.30076
G1 X93.453 Y101 E11.33194
G1 X93.976 Y100.22 E11.36318
G1 X94.543 Y99.516 E11.39324
G1 X95.218 Y98.815 E11.42561
G0 F6000 X95.481 Y99.117
G1 F1200 X96.162 Y98.524 E11.45565
G1 X96.894 Y97.994 E11.4857
G1 X97.669 Y97.531 E11.51573
G1 X98.482 Y97.138 E11.54576
G1 X99.327 Y96.818 E11.57582
G1 X100.196 Y96.575 E11.60583
G1 X101.084 Y96.409 E11.63587
G1 X102.223 Y96.313 E11.67389
G1 X102.83 Y96.3 E11.69409
G1 X131.793 Y96.3 E12.6574
G1 X132.637 Y96.311 E12.68547
G1 X133.539 Y96.364 E12.71553
G1 X134.432 Y96.496 E12.74555
G1 X135.31 Y96.707 E12.77558
G1 X136.166 Y96.995 E12.80562
G1 X136.993 Y97.357 E12.83565
G1 X137.785 Y97.792 E12.8657
G1 X138.536 Y98.294 E12.89575
G1 X139.239 Y98.861 E12.92579
G1 X139.889 Y99.488 E12.95582
G1 X140.481 Y100.17 E12.98586
G1 X141.011 Y100.901 E13.01589
G1 X141.473 Y101.677 E13.04593
G1 X141.866 Y102.49 E13.07596
G1 X142.184 Y103.335 E13.10599
G1 X142.427 Y104.205 E13.13604
G1 X142.592 Y105.093 E13.16608
G1 X142.687 Y106.223 E13.20379
G1 X142.7 Y106.83 E13.22399
G1 X142.699 Y127.89 E13.92445
G1 X142.69 Y128.617 E13.94863
G1 X142.639 Y129.519 E13.97868
G1 X142.508 Y130.413 E14.00873
G1 X142.299 Y131.291 E14.03875
G1 X142.013 Y132.148 E14.0688
G1 X141.652 Y132.976 E14.09884
G1 X141.22 Y133.768 E14.12885
G1 X140.719 Y134.52 E14.1589
G1 X140.153 Y135.224 E14.18894
G1 X139.528 Y135.875 E14.21896
G1 X138.847 Y136.469 E14.24902
G1 X138.116 Y137 E14.27907
G1 X137.342 Y137.464 E14.30908
G1 X136.529 Y137.858 E14.33913
G1 X135.685 Y138.178 E14.36915
G1 X134.815 Y138.423 E14.39921
G1 X133.928 Y138.589 E14.42923
G1 X132.777 Y138.687 E14.46765
G1 X132.17 Y138.7 E14.48784
G1 X103.075 Y138.699 E15.45554
G1 X102.377 Y138.69 E15.47876
G1 X101.476 Y138.639 E15.50878
G1 X100.582 Y138.507 E15.53883
G1 X99.704 Y138.298 E15.56885
G1 X98.847 Y138.011 E15.59891
G1 X98.02 Y137.65 E15.62893
G1 X97.227 Y137.217 E15.65898
G1 X96.476 Y136.716 E15.689
G1 X95.772 Y136.15 E15.71905
G1 X95.121 Y135.524 E15.74909
G1 X94.528 Y134.843 E15.77912
G1 X93.998 Y134.112 E15.80915
G1 X93.534 Y133.337 E15.83919
G1 X93.14 Y132.524 E15.86924
G1 X92.82 Y131.68 E15.89926
G1 X92.576 Y130.81 E15.92932
G1 X92.41 Y129.922 E15.95936
G1 X92.313 Y128.767 E15.99791
G1 X92.3 Y128.158 E16.01817
G1 X92.301 Y107.036 E16.72069
G1 X92.31 Y106.371 E16.74281
G1 X92.362 Y105.469 E16.77287
G1 X92.494 Y104.576 E16.80289
G1 X92.704 Y103.698 E16.83292
G1 X92.991 Y102.841 E16.86298
G1 X93.353 Y102.014 E16.893
G1 X93.786 Y101.222 E16.92302
G1 X94.288 Y100.471 E16.95307
G1 X94.855 Y99.767 E16.98313
G1 X95.481 Y99.117 E17.01315
G1 F2700 E12.01315
;MESH:satellite_cover.stl
G0 F6000 X102.92 Y105.835
G0 X131.9 Y127.9
;TYPE:WALL-INNER
G1 F2700 E17.01315
G1 F1200 X131.9 Y107.1 E17.70496
G1 X103.1 Y107.1 E18.66285
G1 X103.1 Y127.9 E19.35466
G1 X131.9 Y127.9 E20.31255
G0 F6000 X132.3 Y128.3
;TYPE:WALL-OUTER
G1 F1200 X132.3 Y106.7 E21.03097
G1 X102.7 Y106.7 E22.01547
G1 X102.7 Y128.3 E22.73389
G1 X132.3 Y128.3 E23.71839
G0 F6000 X132.03 Y128.03
G0 X131.8 Y127.54
G0 X131.54 Y127.54
;TYPE:SKIN
G1 F1200 X103.46 Y127.54 E24.65234
G1 X103.46 Y107.46 E25.3202
G1 X131.54 Y107.46 E26.25414
G1 X131.54 Y127.54 E26.92201
G0 F6000 X131.8 Y127.54
G0 X131.8 Y108.146
G0 X131.339 Y108.146
G1 F1200 X130.852 Y107.659 E26.94491
G0 F6000 X130.287 Y107.659
G1 F1200 X131.339 Y108.712 E26.99442
G0 F6000 X131.339 Y109.277
G1 F1200 X129.721 Y107.659 E27.07053
G0 F6000 X129.155 Y107.659
G1 F1200 X131.339 Y109.843 E27.17326
G0 F6000 X131.339 Y110.409
G1 F1200 X128.59 Y107.659 E27.30258
G0 F6000 X128.024 Y107.659
G1 F1200 X131.339 Y110.974 E27.45851
G0 F6000 X131.339 Y111.54
G1 F1200 X127.458 Y107.659 E27.64106
G0 F6000 X126.893 Y107.659
G1 F1200 X131.339 Y112.106 E27.85021
G0 F6000 X131.339 Y112.671
G1 F1200 X126.327 Y107.659 E28.08596
G0 F6000 X125.761 Y107.659
G1 F1200 X131.339 Y113.237 E28.34833
G0 F6000 X131.339 Y113.803
G1 F1200 X125.196 Y107.659 E28.6373
G0 F6000 X124.63 Y107.659
G1 F1200 X131.339 Y114.368 E28.95287
G0 F6000 X131.339 Y114.934
G1 F1200 X124.064 Y107.659 E29.29507
G0 F6000 X123.499 Y107.659
G1 F1200 X131.339 Y115.5 E29.66386
G0 F6000 X131.339 Y116.065
G1 F1200 X122.933 Y107.659 E30.05925
G0 F6000 X122.367 Y107.659
G1 F1200 X131.339 Y116.631 E30.48127
G0 F6000 X131.339 Y117.197
G1 F1200 X121.801 Y107.659 E30.92991
G0 F6000 X121.236 Y107.659
G1 F1200 X131.339 Y117.762 E31.40512
G0 F6000 X131.339 Y118.328
G1 F1200 X120.67 Y107.659 E31.90696
G0 F6000 X120.104 Y107.659
G1 F1200 X131.339 Y118.894 E32.43542
G0 F6000 X131.339 Y119.46
G1 F1200 X119.539 Y107.659 E32.99048
G0 F6000 X118.973 Y107.659
G1 F1200 X131.339 Y120.025 E33.57214
G0 F6000 X131.339 Y120.591
G1 F1200 X118.407 Y107.659 E34.18042
G0 F6000 X117.842 Y107.659
G1 F1200 X131.339 Y121.157 E34.8153
G0 F6000 X131.339 Y121.722
G1 F1200 X117.276 Y107.659 E35.47678
G0 F6000 X116.71 Y107.659
G1 F1200 X131.339 Y122.288 E36.16488
G0 F6000 X131.339 Y122.854
G1 F1200 X116.145 Y107.659 E36.87959
G0 F6000 X115.579 Y107.659
G1 F1200 X131.339 Y123.419 E37.62089
G0 F6000 X131.339 Y123.985
G1 F1200 X115.013 Y107.659 E38.38881
G0 F6000 X114.448 Y107.659
G1 F1200 X131.339 Y124.551 E39.18334
G0 F6000 X131.339 Y125.116
G1 F1200 X113.882 Y107.659 E40.00446
G0 F6000 X113.316 Y107.659
G1 F1200 X131.339 Y125.682 E40.85221
G0 F6000 X131.339 Y126.248
G1 F1200 X112.751 Y107.659 E41.72655
G0 F6000 X112.185 Y107.659
G1 F1200 X131.339 Y126.813 E42.6275
G0 F6000 X131.299 Y127.339
G1 F1200 X111.619 Y107.659 E43.55319
G0 F6000 X111.053 Y107.659
G1 F1200 X130.733 Y127.339 E44.47887
G0 F6000 X130.167 Y127.339
G1 F1200 X110.488 Y107.659 E45.40454
G0 F6000 X109.922 Y107.659
G1 F1200 X129.602 Y127.339 E46.33022
G0 F6000 X129.036 Y127.339
G1 F1200 X109.356 Y107.659 E47.25591
G0 F6000 X108.791 Y107.659
G1 F1200 X128.47 Y127.339 E48.18157
G0 F6000 X127.905 Y127.339
G1 F1200 X108.225 Y107.659 E49.10726
G0 F6000 X107.659 Y107.659
G1 F1200 X127.339 Y127.339 E50.03295
G0 F6000 X126.773 Y127.339
G1 F1200 X107.094 Y107.659 E50.95861
G0 F6000 X106.528 Y107.659
G1 F1200 X126.207 Y127.339 E51.88427
G0 F6000 X125.642 Y127.339
G1 F1200 X105.962 Y107.659 E52.80996
G0 F6000 X105.397 Y107.659
G1 F1200 X125.076 Y127.339 E53.73562
G0 F6000 X124.51 Y127.339
G1 F1200 X104.831 Y107.659 E54.66129
G0 F6000 X104.265 Y107.659
G1 F1200 X123.945 Y127.339 E55.58697
G0 F6000 X123.379 Y127.339
G1 F1200 X103.7 Y107.659 E56.51264
G0 F6000 X103.659 Y108.185
G1 F1200 X122.813 Y127.339 E57.41358
G0 F6000 X122.248 Y127.339
G1 F1200 X103.659 Y108.75 E58.28795
G0 F6000 X103.659 Y109.316
G1 F1200 X121.682 Y127.339 E59.1357
G0 F6000 X121.116 Y127.339
G1 F1200 X103.659 Y109.882 E59.95682
G0 F6000 X103.659 Y110.447
G1 F1200 X120.551 Y127.339 E60.75137
G0 F6000 X119.985 Y127.339
G1 F1200 X103.659 Y111.013 E61.5193
G0 F6000 X103.659 Y111.579
G1 F1200 X119.419 Y127.339 E62.2606
G0 F6000 X118.854 Y127.339
G1 F1200 X103.659 Y112.145 E62.9753
G0 F6000 X103.659 Y112.71
G1 F1200 X118.288 Y127.339 E63.6634
G0 F6000 X117.722 Y127.339
G1 F1200 X103.659 Y113.276 E64.32488
G0 F6000 X103.659 Y113.842
G1 F1200 X117.156 Y127.339 E64.95974
G0 F6000 X116.591 Y127.339
G1 F1200 X103.659 Y114.407 E65.56802
G0 F6000 X103.659 Y114.973
G1 F1200 X116.025 Y127.339 E66.14968
G0 F6000 X115.459 Y127.339
G1 F1200 X103.659 Y115.539 E66.70472
G0 F6000 X103.659 Y116.104
G1 F1200 X114.894 Y127.339 E67.23318
G0 F6000 X114.328 Y127.339
G1 F1200 X103.659 Y116.67 E67.73501
G0 F6000 X103.659 Y117.236
G1 F1200 X113.762 Y127.339 E68.21023
G0 F6000 X113.197 Y127.339
G1 F1200 X103.659 Y117.801 E68.65887
G0 F6000 X103.659 Y118.367
G1 F1200 X112.631 Y127.339 E69.08088
G0 F6000 X112.065 Y127.339
G1 F1200 X103.659 Y118.933 E69.47627
G0 F6000 X103.659 Y119.498
G1 F1200 X111.5 Y127.339 E69.84509
G0 F6000 X110.934 Y127.339
G1 F1200 X103.659 Y120.064 E70.18728
G0 F6000 X103.659 Y120.63
G1 F1200 X110.368 Y127.339 E70.50286
G0 F6000 X109.803 Y127.339
G1 F1200 X103.659 Y121.195 E70.79185
G0 F6000 X103.659 Y121.761
G1 F1200 X109.237 Y127.339 E71.05422
G0 F6000 X108.671 Y127.339
G1 F1200 X103.659 Y122.327 E71.28997
G0 F6000 X103.659 Y122.893
G1 F1200 X108.106 Y127.339 E71.49912
G0 F6000 X107.54 Y127.339
G1 F1200 X103.659 Y123.458 E71.68167
G0 F6000 X103.659 Y124.024
G1 F1200 X106.974 Y127.339 E71.8376
G0 F6000 X106.408 Y127.339
G1 F1200 X103.659 Y124.59 E71.9669
G0 F6000 X103.659 Y125.155
G1 F1200 X105.843 Y127.339 E72.06963
G0 F6000 X105.277 Y127.339
G1 F1200 X103.659 Y125.721 E72.14574
G0 F6000 X103.659 Y126.287
G1 F1200 X104.711 Y127.339 E72.19522
G0 F6000 X104.146 Y127.339
G1 F1200 X103.659 Y126.852 E72.21813
G1 F2700 E67.21813
;MESH:NONMESH
G0 F300 X103.659 Y126.852 Z0.4
G0 F6000 X103.2 Y126.852
G0 X102.914 Y106.914
G0 X102.914 Y105.835
G0 X95.481 Y99.117
;TIME_ELAPSED:121.608668
;LAYER:1
M106 S85
;TYPE:SKIRT
G1 F2700 E72.21813
G1 F1200 X96.162 Y98.524 E72.24816
G1 X96.894 Y97.994 E72.27822
G1 X97.669 Y97.531 E72.30825
G1 X98.482 Y97.138 E72.33828
G1 X99.327 Y96.818 E72.36833
G1 X100.196 Y96.575 E72.39834
G1 X101.084 Y96.409 E72.42839
G1 X102.223 Y96.313 E72.46641
G1 X102.83 Y96.3 E72.4866
G1 X131.793 Y96.3 E73.44992
G1 X132.637 Y96.311 E73.47799
G1 X133.539 Y96.364 E73.50804
G1 X134.432 Y96.496 E73.53807
G1 X135.31 Y96.707 E73.5681
G1 X136.166 Y96.995 E73.59814
G1 X136.993 Y97.357 E73.62816
G1 X137.785 Y97.792 E73.65822
G1 X138.536 Y98.294 E73.68826
G1 X139.239 Y98.861 E73.7183
G1 X139.889 Y99.488 E73.74834
G1 X140.481 Y100.17 E73.77838
G1 X141.011 Y100.901 E73.80841
G1 X141.473 Y101.677 E73.83845
G1 X141.866 Y102.49 E73.86848
G1 X142.184 Y103.335 E73.89851
G1 X142.427 Y104.205 E73.92855
G1 X142.592 Y105.093 E73.95859
G1 X142.687 Y106.223 E73.99631
G1 X142.7 Y106.83 E74.0165
G1 X142.699 Y127.89 E74.71696
G1 X142.69 Y128.617 E74.74114
G1 X142.639 Y129.519 E74.77119
G1 X142.508 Y130.413 E74.80125
G1 X142.299 Y131.291 E74.83126
G1 X142.013 Y132.148 E74.86131
G1 X141.652 Y132.976 E74.89136
G1 X141.22 Y133.768 E74.92136
G1 X140.719 Y134.52 E74.95142
G1 X140.153 Y135.224 E74.98146
G1 X139.528 Y135.875 E75.01148
G1 X138.847 Y136.469 E75.04153
G1 X138.116 Y137 E75.07158
G1 X137.342 Y137.464 E75.1016
G1 X136.529 Y137.858 E75.13165
