;FLAVOR:Marlin
;TIME:3103
;Filament used: 1.83671m
;Layer height: 0.2
;MINX:67
;MINY:91.5
;MINZ:0.2
;MAXX:168
;MAXY:143.5
;MAXZ:10
;TARGET_MACHINE.NAME:Creality Ender-3
;Generated with Cura_SteamEngine 5.6.0
M140 S50
M105
M190 S50
M104 S200
M105
M109 S200
M82 ;absolute extrusion mode
; Ender 3 Custom Start G-code
G92 E0 ; Reset Extruder
G28 ; Home all axes
G1 Z2.0 F3000 ; Move Z Axis up little to prevent scratching of Heat Bed
G1 X0.1 Y20 Z0.3 F5000.0 ; Move to start position
G1 X0.1 Y200.0 Z0.3 F1500.0 E15 ; Draw the first line
G1 X0.4 Y200.0 Z0.3 F5000.0 ; Move to side a little
G1 X0.4 Y20 Z0.3 F1500.0 E30 ; Draw the second line
G92 E0 ; Reset Extruder
G1 Z2.0 F3000 ; Move Z Axis up little to prevent scratching of Heat Bed
G1 X5 Y20 Z0.3 F5000.0 ; Move over to prevent blob squish
G92 E0
G92 E0
G1 F2700 E-5
;LAYER_COUNT:50
;LAYER:0
M107
G0 F6000 X71.19 Y97.879 Z0.2
;TYPE:SKIRT
G1 F2700 E0
G1 F1200 X71.979 Y97.311 E0.03234
G1 X72.816 Y96.813 E0.06473
G1 X73.694 Y96.392 E0.09711
G1 X74.607 Y96.05 E0.12954
G1 X75.545 Y95.79 E0.16192
G1 X76.511 Y95.612 E0.19459
G1 X77.655 Y95.515 E0.23277
G1 X78.312 Y95.5 E0.25463
G1 X82.95 Y95.5 E0.40889
G1 X85.534 Y95.463 E0.49484
G1 X88.099 Y95.354 E0.58023
G1 X90.578 Y95.178 E0.66289
G1 X93.079 Y94.931 E0.74648
G1 X95.587 Y94.61 E0.83058
G1 X98.07 Y94.22 E0.91417
G1 X100.51 Y93.766 E0.99672
G1 X103.005 Y93.229 E1.08161
G1 X105.418 Y92.638 E1.16424
G1 X108.127 Y91.894 E1.25767
G1 X109.077 Y91.682 E1.29005
G1 X110.032 Y91.554 E1.3221
G1 X110.706 Y91.513 E1.34455
G1 X111.33 Y91.5 E1.36531
G1 X123.462 Y91.501 E1.76882
G1 X124.208 Y91.513 E1.79364
G1 X124.95 Y91.55 E1.81835
G1 X127.689 Y91.786 E1.90979
G1 X130.175 Y91.925 E1.9926
G1 X132.718 Y91.997 E2.07722
G1 X135.206 Y91.997 E2.15997
G1 X137.74 Y91.925 E2.24428
G1 X140.233 Y91.785 E2.32733
G1 X143.089 Y91.549 E2.42264
G1 X143.706 Y91.513 E2.4432
G1 X144.33 Y91.5 E2.46396
G1 X156.436 Y91.501 E2.86661
G1 X157.169 Y91.512 E2.89099
G1 X158.141 Y91.569 E2.92337
G1 X159.104 Y91.715 E2.95577
G1 X160.05 Y91.944 E2.98814
G1 X160.974 Y92.256 E3.02058
G1 X161.864 Y92.648 E3.05292
G1 X162.687 Y93.099 E3.08414
G1 X163.526 Y93.66 E3.11771
G1 X164.23 Y94.226 E3.14775
G1 X164.983 Y94.951 E3.18252
G1 X165.62 Y95.687 E3.21489
G1 X166.15 Y96.418 E3.24492
G1 X166.686 Y97.315 E3.27968
G1 X167.108 Y98.193 E3.31208
G1 X167.45 Y99.105 E3.34447
G1 X167.71 Y100.043 E3.37685
G1 X167.888 Y101.01 E3.40955
G1 X167.985 Y102.155 E3.44777
G1 X168 Y102.83 E3.47023
G1 X167.999 Y131.9 E4.4371
G1 X167.988 Y132.663 E4.46248
G1 X167.931 Y133.636 E4.4949
G1 X167.786 Y134.599 E4.52729
G1 X167.557 Y135.545 E4.55966
G1 X167.246 Y136.469 E4.59209
G1 X166.854 Y137.36 E4.62446
G1 X166.386 Y138.212 E4.65679
G1 X165.864 Y138.993 E4.68804
G1 X165.231 Y139.778 E4.72158
G1 X164.606 Y140.429 E4.75159
G1 X163.817 Y141.117 E4.78641
G1 X163.057 Y141.667 E4.81762
G1 X162.19 Y142.184 E4.85119
G1 X161.312 Y142.606 E4.88359
G1 X160.401 Y142.948 E4.91595
G1 X159.462 Y143.209 E4.94837
G1 X158.496 Y143.387 E4.98104
G1 X157.345 Y143.485 E5.01946
G1 X156.67 Y143.5 E5.04192
G1 X144.538 Y143.499 E5.44543
G1 X143.791 Y143.487 E5.47028
G1 X143.049 Y143.45 E5.49499
G1 X140.311 Y143.213 E5.58639
G1 X137.825 Y143.075 E5.66921
G1 X135.282 Y143.003 E5.75382
G1 X132.794 Y143.003 E5.83657
G1 X130.26 Y143.075 E5.92089
G1 X127.767 Y143.217 E6.00394
G1 X124.911 Y143.451 E6.09925
G1 X124.294 Y143.487 E6.1198
G1 X123.67 Y143.5 E6.14056
G1 X111.522 Y143.499 E6.54461
G1 X110.77 Y143.485 E6.56962
G1 X109.801 Y143.423 E6.60192
G1 X108.908 Y143.289 E6.63195
G1 X108.046 Y143.086 E6.66141
G1 X106.764 Y142.73 E6.70566
G1 X104.252 Y142.075 E6.792
G1 X101.781 Y141.506 E6.87634
G1 X99.335 Y141.012 E6.95934
G1 X96.861 Y140.587 E7.04283
G1 X94.34 Y140.226 E7.12753
G1 X91.894 Y139.948 E7.20941
G1 X89.318 Y139.724 E7.29541
G1 X86.871 Y139.585 E7.37693
G1 X84.278 Y139.51 E7.46321
G1 X82.921 Y139.5 E7.50834
G1 X78.533 Y139.499 E7.65429
G1 X77.8 Y139.486 E7.67867
G1 X76.828 Y139.425 E7.71107
G1 X75.865 Y139.278 E7.74347
G1 X74.919 Y139.046 E7.77586
G1 X73.997 Y138.731 E7.80827
G1 X73.108 Y138.337 E7.84061
G1 X72.285 Y137.883 E7.87187
G1 X71.45 Y137.318 E7.90541
G1 X70.693 Y136.703 E7.93784
G1 X69.996 Y136.024 E7.97021
G1 X69.361 Y135.286 E8.00259
G1 X68.812 Y134.524 E8.03383
G1 X68.298 Y133.655 E8.06741
G1 X67.907 Y132.841 E8.09744
G1 X67.54 Y131.863 E8.13219
G1 X67.291 Y130.959 E8.16337
G1 X67.108 Y129.958 E8.19722
G1 X67.014 Y128.808 E8.2356
G1 X67 Y128.158 E8.25722
G1 X67.001 Y107.054 E8.95914
G1 X67.012 Y106.33 E8.98322
G1 X67.07 Y105.357 E9.01564
G1 X67.215 Y104.394 E9.04803
G1 X67.435 Y103.481 E9.07927
G1 X67.756 Y102.525 E9.11281
G1 X68.149 Y101.634 E9.1452
G1 X68.6 Y100.812 E9.17639
G1 X69.161 Y99.973 E9.20995
G1 X69.727 Y99.269 E9.24
G1 X70.453 Y98.516 E9.27479
G1 X71.19 Y97.879 E9.30719
G0 F6000 X71.424 Y98.203
G1 F1200 X72.184 Y97.654 E9.33837
G1 X72.99 Y97.173 E9.36959
G1 X73.835 Y96.766 E9.40078
G1 X74.714 Y96.435 E9.43202
G1 X75.618 Y96.183 E9.46324
G1 X76.545 Y96.011 E9.4946
G1 X77.689 Y95.914 E9.53278
G1 X78.321 Y95.9 E9.55381
G1 X82.956 Y95.9 E9.70797
G1 X85.551 Y95.863 E9.79429
G1 X88.116 Y95.754 E9.87968
G1 X90.609 Y95.577 E9.9628
G1 X93.13 Y95.328 E10.04706
G1 X95.638 Y95.007 E10.13116
G1 X98.132 Y94.615 E10.21513
G1 X100.596 Y94.157 E10.29848
G1 X103.1 Y93.618 E10.38367
G1 X105.513 Y93.027 E10.4663
G1 X108.215 Y92.284 E10.55951
G1 X109.131 Y92.078 E10.59073
G1 X110.056 Y91.953 E10.62178
G1 X110.714 Y91.913 E10.64371
G1 X111.33 Y91.9 E10.6642
G1 X123.455 Y91.901 E11.06748
G1 X124.188 Y91.913 E11.09186
G1 X124.916 Y91.949 E11.1161
G1 X127.655 Y92.184 E11.20754
G1 X130.164 Y92.325 E11.29112
G1 X132.707 Y92.397 E11.37573
G1 X135.217 Y92.397 E11.45922
G1 X137.751 Y92.325 E11.54353
G1 X140.267 Y92.183 E11.62735
G1 X141.728 Y92.059 E11.67611
G1 X141.886 Y92.053 E11.68137
G1 X143.112 Y91.948 E11.7223
G1 X143.714 Y91.913 E11.74236
G1 X144.33 Y91.9 E11.76285
G1 X156.43 Y91.901 E12.1653
G1 X157.146 Y91.911 E12.18911
G1 X158.082 Y91.965 E12.2203
G1 X159.011 Y92.104 E12.25154
G1 X159.923 Y92.323 E12.28273
G1 X160.813 Y92.622 E12.31396
G1 X161.672 Y92.999 E12.34516
G1 X162.495 Y93.45 E12.37638
G1 X163.275 Y93.972 E12.40759
G1 X163.979 Y94.538 E12.43764
G1 X164.681 Y95.213 E12.47003
G1 X165.296 Y95.922 E12.50125
G1 X165.826 Y96.653 E12.53128
G1 X166.326 Y97.489 E12.56368
G1 X166.734 Y98.334 E12.59488
G1 X167.065 Y99.212 E12.62609
G1 X167.317 Y100.116 E12.65731
G1 X167.489 Y101.044 E12.6887
G1 X167.586 Y102.189 E12.72692
G1 X167.6 Y102.83 E12.74824
G1 X167.599 Y131.895 E13.71495
G1 X167.589 Y132.64 E13.73973
G1 X167.535 Y133.577 E13.77095
G1 X167.397 Y134.506 E13.80218
G1 X167.178 Y135.418 E13.83338
G1 X166.88 Y136.308 E13.8646
G1 X166.503 Y137.168 E13.89583
G1 X166.053 Y137.99 E13.927
G1 X165.531 Y138.771 E13.95824
G1 X164.942 Y139.501 E13.98944
G1 X164.317 Y140.152 E14.01945
G1 X163.582 Y140.793 E14.05189
G1 X162.822 Y141.343 E14.08309
G1 X162.016 Y141.824 E14.11431
G1 X161.171 Y142.232 E14.14552
G1 X160.293 Y142.563 E14.17673
G1 X159.389 Y142.816 E14.20795
G1 X158.462 Y142.988 E14.23931
G1 X157.311 Y143.086 E14.27773
G1 X156.67 Y143.1 E14.29906
G1 X144.545 Y143.099 E14.70233
G1 X143.811 Y143.087 E14.72675
G1 X143.083 Y143.051 E14.75099
G1 X140.345 Y142.815 E14.8424
G1 X137.836 Y142.675 E14.92598
G1 X135.293 Y142.603 E15.01059
G1 X132.783 Y142.603 E15.09407
G1 X130.249 Y142.675 E15.17839
G1 X127.733 Y142.818 E15.26221
G1 X126.272 Y142.941 E15.31097
G1 X126.114 Y142.947 E15.31623
G1 X124.888 Y143.052 E15.35716
G1 X124.286 Y143.087 E15.37721
G1 X123.67 Y143.1 E15.39771
G1 X111.529 Y143.099 E15.80152
G1 X110.795 Y143.086 E15.82593
G1 X109.86 Y143.027 E15.85709
G1 X108.967 Y142.893 E15.88713
G1 X108.153 Y142.701 E15.91495
G1 X106.865 Y142.343 E15.95941
G1 X104.342 Y141.685 E16.04613
G1 X101.871 Y141.116 E16.13047
G1 X99.41 Y140.619 E16.21397
G1 X96.918 Y140.191 E16.29807
G1 X94.397 Y139.83 E16.38277
G1 X91.928 Y139.549 E16.46542
G1 X89.352 Y139.326 E16.55142
G1 X86.883 Y139.185 E16.63368
G1 X84.29 Y139.11 E16.71996
G1 X82.924 Y139.1 E16.76539
G1 X78.54 Y139.099 E16.9112
G1 X77.824 Y139.087 E16.93502
G1 X76.888 Y139.03 E16.96621
G1 X75.96 Y138.889 E16.99743
G1 X75.048 Y138.667 E17.02865
G1 X74.159 Y138.365 E17.05988
G1 X73.301 Y137.986 E17.09107
G1 X72.509 Y137.551 E17.12113
G1 X71.702 Y137.007 E17.1535
G1 X70.972 Y136.416 E17.18474
G1 X70.299 Y135.763 E17.21593
G1 X69.686 Y135.052 E17.24715
G1 X69.137 Y134.29 E17.27839
G1 X68.659 Y133.482 E17.30961
G1 X68.268 Y132.668 E17.33965
G1 X67.926 Y131.757 E17.37201
G1 X67.677 Y130.853 E17.4032
G1 X67.507 Y129.925 E17.43458
G1 X67.413 Y128.775 E17.47295
G1 X67.4 Y128.158 E17.49348
G1 X67.401 Y107.06 E18.1952
G1 X67.411 Y106.353 E18.21872
G1 X67.466 Y105.416 E18.24994
G1 X67.604 Y104.488 E18.28114
G1 X67.824 Y103.575 E18.31238
G1 X68.122 Y102.686 E18.34356
G1 X68.5 Y101.826 E18.37481
G1 X68.951 Y101.004 E18.40599
G1 X69.473 Y100.224 E18.43721
G1 X70.039 Y99.52 E18.46725
G1 X70.715 Y98.818 E18.49967
G1 X71.424 Y98.203 E18.53088
G0 F6000 X71.659 Y98.527
G1 F1200 X72.39 Y97.997 E18.56092
G1 X73.164 Y97.533 E18.59093
G1 X73.977 Y97.14 E18.62096
G1 X74.822 Y96.82 E18.65102
G1 X75.692 Y96.576 E18.68107
G1 X76.579 Y96.41 E18.71108
G1 X77.723 Y96.313 E18.74927
G1 X78.33 Y96.3 E18.76946
G1 X82.962 Y96.3 E18.92352
G1 X85.568 Y96.263 E19.01021
G1 X88.133 Y96.154 E19.0956
G1 X90.64 Y95.976 E19.17919
G1 X93.181 Y95.725 E19.26412
G1 X95.689 Y95.404 E19.34821
G1 X98.194 Y95.01 E19.43255
G1 X100.681 Y94.548 E19.51669
G1 X103.195 Y94.007 E19.60222
G1 X105.608 Y93.416 E19.68485
G1 X108.304 Y92.674 E19.77785
G1 X109.185 Y92.474 E19.8079
G1 X110.08 Y92.352 E19.83794
G1 X110.723 Y92.313 E19.85937
G1 X111.33 Y92.3 E19.87956
G1 X123.449 Y92.301 E20.28264
G1 X124.168 Y92.312 E20.30656
G1 X124.882 Y92.348 E20.33033
G1 X127.621 Y92.582 E20.42177
G1 X130.153 Y92.725 E20.50611
G1 X132.696 Y92.797 E20.59073
G1 X135.228 Y92.797 E20.67494
G1 X137.762 Y92.725 E20.75926
G1 X140.301 Y92.581 E20.84384
G1 X141.744 Y92.459 E20.89201
G1 X141.914 Y92.452 E20.89767
G1 X143.135 Y92.347 E20.93843
G1 X143.723 Y92.313 E20.95802
G1 X144.33 Y92.3 E20.97821
G1 X156.425 Y92.301 E21.38049
G1 X157.123 Y92.31 E21.40371
G1 X158.024 Y92.361 E21.43372
G1 X158.918 Y92.493 E21.46378
G1 X159.796 Y92.702 E21.4938
G1 X160.653 Y92.989 E21.52386
G1 X161.48 Y93.35 E21.55387
G1 X162.273 Y93.783 E21.58392
G1 X163.024 Y94.284 E21.61395
G1 X163.728 Y94.85 E21.64399
G1 X164.379 Y95.476 E21.67403
G1 X164.972 Y96.157 E21.70407
G1 X165.502 Y96.888 E21.7341
G1 X165.966 Y97.663 E21.76414
G1 X166.36 Y98.476 E21.79419
G1 X166.68 Y99.32 E21.82421
G1 X166.924 Y100.19 E21.85426
G1 X167.09 Y101.078 E21.88431
G1 X167.187 Y102.223 E21.92253
G1 X167.2 Y102.83 E21.94272
G1 X167.199 Y131.89 E22.90926
G1 X167.19 Y132.617 E22.93344
G1 X167.139 Y133.519 E22.96349
G1 X167.008 Y134.413 E22.99354
G1 X166.799 Y135.291 E23.02356
G1 X166.513 Y136.148 E23.05361
G1 X166.152 Y136.976 E23.08366
G1 X165.72 Y137.768 E23.11366
G1 X165.219 Y138.52 E23.14372
G1 X164.653 Y139.224 E23.17376
G1 X164.028 Y139.875 E23.20378
G1 X163.347 Y140.469 E23.23383
G1 X162.616 Y141 E23.26388
G1 X161.842 Y141.464 E23.2939
G1 X161.029 Y141.858 E23.32395
G1 X160.185 Y142.178 E23.35397
G1 X159.315 Y142.423 E23.38403
G1 X158.428 Y142.589 E23.41404
G1 X157.277 Y142.687 E23.45246
G1 X156.67 Y142.7 E23.47266
G1 X144.551 Y142.699 E23.87574
G1 X143.831 Y142.688 E23.89969
G1 X143.117 Y142.652 E23.92346
G1 X140.379 Y142.417 E24.01487
G1 X137.847 Y142.275 E24.09921
G1 X135.304 Y142.203 E24.18383
G1 X132.772 Y142.203 E24.26804
G1 X130.238 Y142.275 E24.35236
G1 X127.699 Y142.419 E24.43694
G1 X126.256 Y142.541 E24.48511
G1 X126.086 Y142.548 E24.49076
G1 X124.865 Y142.653 E24.53153
G1 X124.277 Y142.687 E24.55112
G1 X123.67 Y142.7 E24.57131
G1 X111.536 Y142.699 E24.97489
G1 X110.82 Y142.687 E24.9987
G1 X109.919 Y142.631 E25.02873
G1 X109.026 Y142.497 E25.05876
G1 X108.26 Y142.316 E25.08494
G1 X106.966 Y141.956 E25.12962
G1 X104.432 Y141.295 E25.21672
G1 X101.961 Y140.726 E25.30105
G1 X99.485 Y140.226 E25.38507
G1 X96.975 Y139.795 E25.46977
G1 X94.454 Y139.434 E25.55448
G1 X91.962 Y139.15 E25.6379
G1 X89.386 Y138.928 E25.72389
G1 X86.895 Y138.785 E25.80688
G1 X84.302 Y138.71 E25.89316
G1 X82.927 Y138.7 E25.93889
G1 X78.546 Y138.699 E26.08461
G1 X77.848 Y138.688 E26.10783
G1 X76.947 Y138.634 E26.13785
G1 X76.054 Y138.5 E26.16788
G1 X75.176 Y138.288 E26.19792
G1 X74.32 Y137.999 E26.22797
G1 X73.494 Y137.635 E26.25799
G1 X72.702 Y137.2 E26.28805
G1 X71.953 Y136.696 E26.31807
G1 X71.25 Y136.128 E26.34813
G1 X70.601 Y135.501 E26.37815
G1 X70.01 Y134.818 E26.40819
G1 X69.481 Y134.086 E26.43823
G1 X69.02 Y133.309 E26.46828
G1 X68.629 Y132.495 E26.49831
G1 X68.311 Y131.65 E26.52834
G1 X68.07 Y130.78 E26.55837
G1 X67.906 Y129.892 E26.5884
G1 X67.813 Y128.766 E26.62598
G1 X67.8 Y128.158 E26.64621
G1 X67.801 Y107.065 E27.34776
G1 X67.81 Y106.376 E27.37068
G1 X67.862 Y105.474 E27.40073
G1 X67.993 Y104.581 E27.43075
G1 X68.203 Y103.702 E27.46081
G1 X68.489 Y102.846 E27.49083
G1 X68.851 Y102.018 E27.52088
G1 X69.284 Y101.226 E27.55091
G1 X69.785 Y100.475 E27.58093
G1 X70.351 Y99.771 E27.61098
G1 X70.977 Y99.12 E27.64101
G1 X71.659 Y98.527 E27.67107
G1 F2700 E22.67107
;MESH:satellite_and_cover.stl
G0 F6000 X78.42 Y105.835
G0 X107.4 Y127.9
;TYPE:WALL-INNER
G1 F2700 E27.67107
G1 F1200 X107.4 Y107.1 E28.36288
G1 X78.6 Y107.1 E29.32078
G1 X78.6 Y127.9 E30.01259
G1 X107.4 Y127.9 E30.97048
G0 F6000 X107.8 Y128.3
;TYPE:WALL-OUTER
G1 F1200 X107.8 Y106.7 E31.6889
G1 X78.2 Y106.7 E32.6734
G1 X78.2 Y128.3 E33.39182
G1 X107.8 Y128.3 E34.37632
G0 F6000 X107.53 Y128.03
G0 X107.3 Y127.54
G0 X107.04 Y127.54
;TYPE:SKIN
G1 F1200 X78.96 Y127.54 E35.31026
G1 X78.96 Y107.46 E35.97812
G1 X107.04 Y107.46 E36.91207
G1 X107.04 Y127.54 E37.57993
G0 F6000 X107.3 Y127.54
G0 X107.3 Y107.971
G0 X106.84 Y107.971
G1 F1200 X106.527 Y107.659 E37.59463
G0 F6000 X105.962 Y107.659
G1 F1200 X106.84 Y108.537 E37.63593
G0 F6000 X106.84 Y109.103
G1 F1200 X105.396 Y107.659 E37.70385
G0 F6000 X104.83 Y107.659
G1 F1200 X106.84 Y109.668 E37.79837
G0 F6000 X106.84 Y110.234
G1 F1200 X104.265 Y107.659 E37.91949
G0 F6000 X103.699 Y107.659
G1 F1200 X106.84 Y110.8 E38.06724
G0 F6000 X106.84 Y111.365
G1 F1200 X103.133 Y107.659 E38.24158
G0 F6000 X102.567 Y107.659
G1 F1200 X106.84 Y111.931 E38.44254
G0 F6000 X106.84 Y112.497
G1 F1200 X102.002 Y107.659 E38.67011
G0 F6000 X101.436 Y107.659
G1 F1200 X106.84 Y113.062 E38.92427
G0 F6000 X106.84 Y113.628
G1 F1200 X100.87 Y107.659 E39.20506
G0 F6000 X100.305 Y107.659
G1 F1200 X106.84 Y114.194 E39.51245
G0 F6000 X106.84 Y114.759
G1 F1200 X99.739 Y107.659 E39.84643
G0 F6000 X99.173 Y107.659
G1 F1200 X106.84 Y115.325 E40.20704
G0 F6000 X106.84 Y115.891
G1 F1200 X98.608 Y107.659 E40.59425
G0 F6000 X98.042 Y107.659
G1 F1200 X106.84 Y116.456 E41.00806
G0 F6000 X106.84 Y117.022
G1 F1200 X97.476 Y107.659 E41.44849
G0 F6000 X96.911 Y107.659
G1 F1200 X106.84 Y117.588 E41.91552
G0 F6000 X106.84 Y118.154
G1 F1200 X96.345 Y107.659 E42.40917
G0 F6000 X95.779 Y107.659
G1 F1200 X106.84 Y118.719 E42.92942
G0 F6000 X106.84 Y119.285
G1 F1200 X95.214 Y107.659 E43.47627
G0 F6000 X94.648 Y107.659
G1 F1200 X106.84 Y119.851 E44.04975
G0 F6000 X106.84 Y120.416
G1 F1200 X94.082 Y107.659 E44.64982
G0 F6000 X93.516 Y107.659
G1 F1200 X106.84 Y120.982 E45.27652
G0 F6000 X106.84 Y121.548
G1 F1200 X92.951 Y107.659 E45.92981
G0 F6000 X92.385 Y107.659
G1 F1200 X106.84 Y122.113 E46.60971
G0 F6000 X106.84 Y122.679
G1 F1200 X91.819 Y107.659 E47.31623
G0 F6000 X91.254 Y107.659
G1 F1200 X106.84 Y123.245 E48.04934
