;FLAVOR:Marlin
;TIME:12297
;Filament used: 7.99641m
;Layer height: 0.2
;MINX:54.5
;MINY:44.5
;MINZ:0.2
;MAXX:180.5
;MAXY:190.5
;MAXZ:13
;TARGET_MACHINE.NAME:Creality Ender-3
;Generated with Cura_SteamEngine 5.6.0
M140 S50
M105
M190 S50
M104 S200
M105
M109 S200
M82 ;absolute extrusion mode
; Ender 3 Custom Start G-code
G92 E0 ; Reset Extruder
G28 ; Home all axes
G1 Z2.0 F3000 ; Move Z Axis up little to prevent scratching of Heat Bed
G1 X0.1 Y20 Z0.3 F5000.0 ; Move to start position
G1 X0.1 Y200.0 Z0.3 F1500.0 E15 ; Draw the first line
G1 X0.4 Y200.0 Z0.3 F5000.0 ; Move to side a little
G1 X0.4 Y20 Z0.3 F1500.0 E30 ; Draw the second line
G92 E0 ; Reset Extruder
G1 Z2.0 F3000 ; Move Z Axis up little to prevent scratching of Heat Bed
G1 X5 Y20 Z0.3 F5000.0 ; Move over to prevent blob squish
G92 E0
G92 E0
G1 F2700 E-5
;LAYER_COUNT:65
;LAYER:0
M107
G0 F6000 X57.227 Y52.269 Z0.2
;TYPE:SKIRT
G1 F2700 E0
G1 F1200 X57.953 Y51.516 E0.03479
G1 X58.69 Y50.879 E0.06719
G1 X59.479 Y50.311 E0.09952
G1 X60.316 Y49.813 E0.13192
G1 X61.194 Y49.392 E0.1643
G1 X62.107 Y49.05 E0.19673
G1 X63.045 Y48.79 E0.22911
G1 X64.011 Y48.612 E0.26178
G1 X65.155 Y48.515 E0.29996
G1 X65.812 Y48.5 E0.32182
G1 X70.45 Y48.5 E0.47608
G1 X73.034 Y48.463 E0.56203
G1 X75.599 Y48.354 E0.64742
G1 X78.078 Y48.178 E0.73008
G1 X80.579 Y47.931 E0.81367
G1 X83.087 Y47.61 E0.89777
G1 X85.57 Y47.22 E0.98136
G1 X88.01 Y46.766 E1.06391
G1 X90.505 Y46.229 E1.1488
G1 X92.918 Y45.638 E1.23142
G1 X95.627 Y44.894 E1.32486
G1 X96.577 Y44.682 E1.35724
G1 X97.532 Y44.554 E1.38928
G1 X98.206 Y44.513 E1.41174
G1 X98.83 Y44.5 E1.4325
G1 X110.962 Y44.501 E1.83601
G1 X111.708 Y44.513 E1.86083
G1 X112.45 Y44.55 E1.88554
G1 X115.189 Y44.786 E1.97698
G1 X117.675 Y44.925 E2.05979
G1 X120.218 Y44.997 E2.1444
G1 X122.706 Y44.997 E2.22716
G1 X125.24 Y44.925 E2.31147
G1 X127.733 Y44.785 E2.39452
G1 X130.589 Y44.549 E2.48983
G1 X131.206 Y44.513 E2.51039
G1 X131.83 Y44.5 E2.53115
G1 X143.951 Y44.501 E2.9343
G1 X144.683 Y44.513 E2.95864
G1 X145.655 Y44.572 E2.99103
G1 X146.618 Y44.718 E3.02343
G1 X147.565 Y44.949 E3.05585
G1 X148.487 Y45.263 E3.08824
G1 X149.378 Y45.657 E3.12065
G1 X150.228 Y46.126 E3.15294
G1 X150.979 Y46.628 E3.18298
G1 X151.794 Y47.286 E3.21782
G1 X152.492 Y47.964 E3.25019
G1 X153.128 Y48.701 E3.28256
G1 X153.698 Y49.491 E3.31496
G1 X154.16 Y50.267 E3.345
G1 X154.614 Y51.209 E3.37978
G1 X154.955 Y52.125 E3.41229
G1 X155.243 Y53.191 E3.44902
G1 X155.858 Y56.039 E3.54593
G1 X156.442 Y58.415 E3.6273
G1 X157.118 Y60.865 E3.71184
G1 X157.859 Y63.276 E3.79573
G1 X158.655 Y65.633 E3.87847
G1 X159.539 Y68.024 E3.96326
G1 X160.475 Y70.347 E4.04656
G1 X161.487 Y72.668 E4.13077
G1 X162.553 Y74.941 E4.21428
G1 X163.675 Y77.161 E4.29701
G1 X164.909 Y79.444 E4.38332
G1 X166.12 Y81.542 E4.46389
G1 X167.468 Y83.726 E4.54926
G1 X168.836 Y85.815 E4.63231
G1 X170.493 Y88.184 E4.72846
G1 X170.928 Y88.859 E4.75517
G1 X171.389 Y89.638 E4.78528
G1 X178.694 Y102.417 E5.27485
G1 X179.122 Y103.192 E5.3043
G1 X179.554 Y104.065 E5.3367
G1 X179.883 Y104.906 E5.36673
G1 X180.175 Y105.91 E5.40151
G1 X180.363 Y106.883 E5.43447
G1 X180.477 Y108.219 E5.47907
G1 X180.5 Y109.462 E5.52042
G1 X180.499 Y159.954 E7.19979
G1 X180.487 Y160.673 E7.2237
G1 X180.428 Y161.647 E7.25616
G1 X180.281 Y162.608 E7.28849
G1 X180.05 Y163.556 E7.32095
G1 X179.73 Y164.492 E7.35385
G1 X179.161 Y165.717 E7.39877
G1 X178.565 Y166.806 E7.44006
G1 X171.401 Y179.344 E7.92035
G1 X170.947 Y180.114 E7.95008
G1 X170.453 Y180.871 E7.98015
G1 X169.806 Y181.693 E8.01494
G1 X169.137 Y182.398 E8.04726
G1 X168.463 Y182.998 E8.07728
G1 X167.622 Y183.62 E8.11207
G1 X166.791 Y184.126 E8.14443
G1 X165.919 Y184.558 E8.17679
G1 X165.078 Y184.887 E8.20683
G1 X164.075 Y185.178 E8.24157
G1 X163.118 Y185.366 E8.274
G1 X162.167 Y185.466 E8.30581
G1 X161.681 Y185.485 E8.32199
G1 X160.83 Y185.499 E8.35029
G1 X130.782 Y185.5 E9.34969
G1 X128.198 Y185.537 E9.43565
G1 X125.63 Y185.646 E9.52114
G1 X123.156 Y185.821 E9.60363
G1 X120.684 Y186.066 E9.68625
G1 X118.121 Y186.394 E9.77219
G1 X115.658 Y186.781 E9.85512
G1 X113.198 Y187.238 E9.93834
G1 X110.737 Y187.766 E10.02205
G1 X108.326 Y188.36 E10.10464
G1 X105.826 Y189.047 E10.19087
G1 X102.849 Y189.967 E10.29451
G1 X101.911 Y190.222 E10.32684
G1 X100.945 Y190.394 E10.35947
G1 X99.827 Y190.485 E10.39678
G1 X99.17 Y190.5 E10.41864
G1 X72.064 Y190.499 E11.32019
G1 X71.331 Y190.488 E11.34457
G1 X70.359 Y190.431 E11.37695
G1 X69.396 Y190.285 E11.40935
G1 X68.45 Y190.056 E11.44172
G1 X67.526 Y189.744 E11.47416
G1 X66.636 Y189.352 E11.5065
G1 X65.813 Y188.901 E11.53772
G1 X64.974 Y188.34 E11.57129
G1 X64.27 Y187.774 E11.60133
G1 X63.517 Y187.049 E11.6361
G1 X62.88 Y186.313 E11.66847
G1 X62.35 Y185.582 E11.6985
G1 X61.814 Y184.685 E11.73326
G1 X61.392 Y183.807 E11.76566
G1 X61.05 Y182.895 E11.79806
G1 X60.79 Y181.957 E11.83043
G1 X60.612 Y180.988 E11.8632
G1 X60.513 Y179.785 E11.90335
G1 X60.5 Y179.176 E11.92361
G1 X60.5 Y115.67 E14.03582
G1 X60.463 Y113.076 E14.12211
G1 X60.354 Y110.53 E14.20687
G1 X60.179 Y108.05 E14.28956
G1 X59.934 Y105.583 E14.37201
G1 X59.606 Y103.02 E14.45795
G1 X59.219 Y100.557 E14.54088
G1 X58.763 Y98.103 E14.6239
G1 X58.227 Y95.62 E14.70838
G1 X57.63 Y93.181 E14.7919
G1 X56.962 Y90.748 E14.87582
G1 X56.235 Y88.378 E14.95827
G1 X55.377 Y85.837 E15.04747
G1 X55.127 Y85.129 E15.07244
G1 X54.864 Y84.265 E15.10248
G1 X54.65 Y83.243 E15.13721
G1 X54.543 Y82.347 E15.16722
G1 X54.513 Y81.794 E15.18564
G1 X54.5 Y81.17 E15.2064
G1 X54.501 Y60.054 E15.90872
G1 X54.512 Y59.33 E15.93281
G1 X54.57 Y58.357 E15.96523
G1 X54.715 Y57.394 E15.99762
G1 X54.935 Y56.481 E16.02885
G1 X55.256 Y55.525 E16.06239
G1 X55.649 Y54.634 E16.09478
G1 X56.1 Y53.812 E16.12597
G1 X56.661 Y52.973 E16.15954
G1 X57.227 Y52.269 E16.18958
G0 F6000 X57.539 Y52.52
G1 F1200 X58.215 Y51.818 E16.222
G1 X58.924 Y51.203 E16.25321
G1 X59.684 Y50.654 E16.2844
G1 X60.49 Y50.173 E16.31561
G1 X61.335 Y49.766 E16.34681
G1 X62.214 Y49.435 E16.37805
G1 X63.118 Y49.183 E16.40926
G1 X64.045 Y49.011 E16.44062
G1 X65.189 Y48.914 E16.47881
G1 X65.821 Y48.9 E16.49983
G1 X70.456 Y48.9 E16.65399
G1 X73.051 Y48.863 E16.74031
G1 X75.616 Y48.754 E16.8257
G1 X78.109 Y48.577 E16.90883
G1 X80.63 Y48.328 E16.99308
G1 X83.138 Y48.007 E17.07718
G1 X85.632 Y47.615 E17.16115
G1 X88.096 Y47.157 E17.24451
G1 X90.6 Y46.618 E17.3297
G1 X93.013 Y46.027 E17.41233
G1 X95.715 Y45.284 E17.50553
G1 X96.631 Y45.078 E17.53676
G1 X97.556 Y44.953 E17.5678
G1 X98.214 Y44.913 E17.58973
G1 X98.83 Y44.9 E17.61022
G1 X110.955 Y44.901 E18.0135
G1 X111.688 Y44.913 E18.03788
G1 X112.416 Y44.949 E18.06213
G1 X115.155 Y45.184 E18.15356
G1 X117.664 Y45.325 E18.23714
G1 X120.207 Y45.397 E18.32176
G1 X122.717 Y45.397 E18.40524
G1 X125.251 Y45.325 E18.48955
G1 X127.767 Y45.183 E18.57337
G1 X129.228 Y45.059 E18.62214
G1 X129.386 Y45.053 E18.6274
G1 X130.612 Y44.948 E18.66832
G1 X131.214 Y44.913 E18.68838
G1 X131.83 Y44.9 E18.70887
G1 X143.945 Y44.901 E19.11182
G1 X144.659 Y44.912 E19.13557
G1 X145.596 Y44.968 E19.16679
G1 X146.524 Y45.107 E19.198
G1 X147.437 Y45.328 E19.22924
G1 X148.326 Y45.629 E19.26046
G1 X149.185 Y46.007 E19.29167
G1 X150.006 Y46.459 E19.32285
G1 X150.757 Y46.961 E19.35289
G1 X151.516 Y47.573 E19.38532
G1 X152.19 Y48.226 E19.41653
G1 X152.804 Y48.935 E19.44773
G1 X153.354 Y49.696 E19.47896
G1 X153.816 Y50.472 E19.50899
G1 X154.239 Y51.349 E19.54138
G1 X154.569 Y52.23 E19.57267
G1 X154.852 Y53.275 E19.60868
G1 X155.467 Y56.123 E19.70559
G1 X156.056 Y58.521 E19.78772
G1 X156.732 Y60.971 E19.87225
G1 X157.48 Y63.404 E19.95691
G1 X158.28 Y65.772 E20.04004
G1 X159.168 Y68.173 E20.12519
G1 X160.108 Y70.507 E20.20887
G1 X161.12 Y72.828 E20.29309
G1 X162.196 Y75.121 E20.37733
G1 X163.323 Y77.351 E20.46044
G1 X164.557 Y79.634 E20.54675
G1 X165.78 Y81.752 E20.6281
G1 X167.133 Y83.945 E20.7138
G1 X168.508 Y86.044 E20.79726
G1 X170.157 Y88.401 E20.89294
G1 X170.584 Y89.063 E20.91914
G1 X171.042 Y89.837 E20.94905
G1 X178.344 Y102.611 E21.43843
G1 X178.764 Y103.37 E21.46728
G1 X179.181 Y104.211 E21.49851
G1 X179.51 Y105.052 E21.52854
G1 X179.782 Y105.987 E21.56093
G1 X179.964 Y106.917 E21.59245
G1 X180.078 Y108.253 E21.63704
G1 X180.1 Y109.462 E21.67726
G1 X180.099 Y159.948 E23.35643
G1 X180.088 Y160.649 E23.37975
G1 X180.032 Y161.587 E23.41101
G1 X179.892 Y162.514 E23.44219
G1 X179.671 Y163.427 E23.47343
G1 X179.367 Y164.323 E23.5049
G1 X178.798 Y165.548 E23.54983
G1 X178.218 Y166.608 E23.59001
G1 X171.057 Y179.141 E24.07011
G1 X170.612 Y179.895 E24.09923
G1 X170.118 Y180.652 E24.12929
G1 X169.516 Y181.418 E24.1617
G1 X168.871 Y182.099 E24.19289
G1 X168.197 Y182.699 E24.22291
G1 X167.414 Y183.279 E24.25532
G1 X166.613 Y183.768 E24.28653
G1 X165.773 Y184.185 E24.31772
G1 X164.932 Y184.514 E24.34776
G1 X163.997 Y184.786 E24.38014
G1 X163.076 Y184.968 E24.41137
G1 X162.151 Y185.066 E24.44231
G1 X161.674 Y185.085 E24.45819
G1 X160.83 Y185.099 E24.48626
G1 X130.776 Y185.1 E25.48586
G1 X128.181 Y185.137 E25.57218
G1 X125.613 Y185.246 E25.65767
G1 X123.125 Y185.422 E25.74063
G1 X120.633 Y185.669 E25.82392
G1 X118.07 Y185.997 E25.90986
G1 X115.596 Y186.386 E25.99315
G1 X113.114 Y186.847 E26.07712
G1 X110.653 Y187.375 E26.16083
G1 X108.22 Y187.974 E26.24417
G1 X105.72 Y188.661 E26.3304
G1 X102.744 Y189.581 E26.43401
G1 X101.84 Y189.828 E26.46518
G1 X100.912 Y189.995 E26.49654
G1 X99.818 Y190.085 E26.53305
G1 X99.17 Y190.1 E26.55461
G1 X72.07 Y190.099 E27.45596
G1 X71.354 Y190.089 E27.47977
G1 X70.418 Y190.035 E27.51096
G1 X69.489 Y189.896 E27.5422
G1 X68.577 Y189.677 E27.57339
G1 X67.687 Y189.378 E27.60462
G1 X66.828 Y189.001 E27.63582
G1 X66.005 Y188.55 E27.66704
G1 X65.225 Y188.028 E27.69825
G1 X64.521 Y187.462 E27.7283
G1 X63.819 Y186.787 E27.76069
G1 X63.204 Y186.078 E27.79191
G1 X62.674 Y185.347 E27.82194
G1 X62.174 Y184.511 E27.85434
G1 X61.766 Y183.666 E27.88555
G1 X61.435 Y182.788 E27.91675
G1 X61.183 Y181.884 E27.94797
G1 X61.011 Y180.955 E27.97939
G1 X60.913 Y179.776 E28.01874
G1 X60.9 Y179.167 E28.039
G1 X60.9 Y115.67 E30.15092
G1 X60.863 Y113.07 E30.2374
G1 X60.754 Y110.513 E30.32253
G1 X60.578 Y108.022 E30.40558
G1 X60.331 Y105.532 E30.48881
G1 X60.003 Y102.969 E30.57475
G1 X59.614 Y100.495 E30.65805
G1 X59.156 Y98.03 E30.74144
G1 X58.616 Y95.525 E30.82667
G1 X58.019 Y93.086 E30.91018
G1 X57.347 Y90.642 E30.99449
G1 X56.614 Y88.25 E31.0777
G1 X55.756 Y85.709 E31.1669
G1 X55.51 Y85.013 E31.19145
G1 X55.247 Y84.149 E31.22149
G1 X55.047 Y83.196 E31.25388
G1 X54.94 Y82.3 E31.28389
G1 X54.913 Y81.786 E31.30101
G1 X54.9 Y81.17 E31.3215
G1 X54.901 Y60.06 E32.02362
G1 X54.911 Y59.353 E32.04714
G1 X54.966 Y58.416 E32.07836
G1 X55.104 Y57.488 E32.10956
G1 X55.324 Y56.575 E32.1408
G1 X55.622 Y55.686 E32.17199
G1 X56 Y54.826 E32.20323
G1 X56.451 Y54.004 E32.23441
G1 X56.973 Y53.224 E32.26563
G1 X57.539 Y52.52 E32.29568
G0 F6000 X57.851 Y52.771
G1 F1200 X58.477 Y52.12 E32.32571
G1 X59.159 Y51.527 E32.35577
G1 X59.89 Y50.997 E32.3858
G1 X60.664 Y50.533 E32.41582
G1 X61.477 Y50.14 E32.44585
G1 X62.322 Y49.82 E32.47591
G1 X63.192 Y49.576 E32.50596
G1 X64.079 Y49.41 E32.53597
G1 X65.223 Y49.313 E32.57416
G1 X65.83 Y49.3 E32.59435
G1 X70.462 Y49.3 E32.74841
G1 X73.068 Y49.263 E32.8351
G1 X75.633 Y49.154 E32.92049
G1 X78.14 Y48.976 E33.00408
G1 X80.681 Y48.725 E33.08901
G1 X83.189 Y48.404 E33.1731
G1 X85.694 Y48.01 E33.25744
G1 X88.181 Y47.548 E33.34158
G1 X90.695 Y47.007 E33.42711
G1 X93.108 Y46.416 E33.50974
G1 X95.804 Y45.674 E33.60274
G1 X96.685 Y45.474 E33.63279
G1 X97.58 Y45.352 E33.66283
G1 X98.223 Y45.313 E33.68426
G1 X98.83 Y45.3 E33.70445
G1 X110.949 Y45.301 E34.10753
G1 X111.668 Y45.312 E34.13145
G1 X112.382 Y45.348 E34.15522
G1 X115.121 Y45.582 E34.24665
G1 X117.653 Y45.725 E34.331
G1 X120.196 Y45.797 E34.41562
G1 X122.728 Y45.797 E34.49983
G1 X125.262 Y45.725 E34.58415
G1 X127.801 Y45.581 E34.66873
G1 X129.244 Y45.459 E34.7169
G1 X129.414 Y45.452 E34.72256
G1 X130.635 Y45.347 E34.76332
G1 X131.223 Y45.313 E34.78291
G1 X131.83 Y45.3 E34.8031
G1 X143.939 Y45.301 E35.20585
G1 X144.636 Y45.311 E35.22903
G1 X145.538 Y45.364 E35.25908
G1 X146.431 Y45.496 E35.28911
G1 X147.309 Y45.707 E35.31914
G1 X148.165 Y45.995 E35.34918
G1 X148.993 Y46.358 E35.37925
G1 X149.784 Y46.792 E35.40926
G1 X150.535 Y47.294 E35.4393
G1 X151.238 Y47.861 E35.46934
G1 X151.888 Y48.488 E35.49938
G1 X152.48 Y49.17 E35.52942
G1 X153.01 Y49.901 E35.55945
G1 X153.472 Y50.677 E35.58949
G1 X153.865 Y51.49 E35.61952
G1 X154.183 Y52.335 E35.64955
G1 X154.461 Y53.359 E35.68484
G1 X155.076 Y56.207 E35.78175
G1 X155.67 Y58.628 E35.86466
G1 X156.347 Y61.078 E35.9492
G1 X157.101 Y63.532 E36.03459
G1 X157.905 Y65.911 E36.11811
G1 X158.797 Y68.322 E36.20361
G1 X159.741 Y70.667 E36.28769
G1 X160.753 Y72.988 E36.37191
G1 X161.839 Y75.301 E36.45689
G1 X162.971 Y77.541 E36.54037
G1 X164.205 Y79.824 E36.62669
G1 X165.44 Y81.962 E36.70881
G1 X166.798 Y84.164 E36.79485
G1 X168.18 Y86.273 E36.87872
G1 X169.821 Y88.618 E36.97391
G1 X170.24 Y89.267 E36.99961
G1 X170.695 Y90.035 E37.0293
G1 X177.994 Y102.805 E37.51851
G1 X178.406 Y103.548 E37.54677
G1 X178.808 Y104.357 E37.57682
G1 X179.137 Y105.198 E37.60685
G1 X179.39 Y106.065 E37.63689
G1 X179.565 Y106.951 E37.66693
G1 X179.679 Y108.287 E37.71153
G1 X179.7 Y109.462 E37.75061
G1 X179.699 Y159.942 E39.42958
G1 X179.689 Y160.626 E39.45234
G1 X179.636 Y161.528 E39.48239
G1 X179.503 Y162.421 E39.51242
G1 X179.292 Y163.299 E39.54245
G1 X179.004 Y164.155 E39.57249
G1 X178.447 Y165.356 E39.61652
G1 X177.871 Y166.41 E39.65647
G1 X170.712 Y178.938 E40.13639
G1 X170.277 Y179.676 E40.16488
G1 X169.783 Y180.433 E40.19495
G1 X169.225 Y181.143 E40.22498
G1 X168.605 Y181.8 E40.25503
G1 X167.931 Y182.4 E40.28504
G1 X167.205 Y182.938 E40.3151
G1 X166.435 Y183.41 E40.34513
G1 X165.627 Y183.812 E40.37515
G1 X164.786 Y184.141 E40.40519
G1 X163.919 Y184.394 E40.43523
G1 X163.033 Y184.57 E40.46527
G1 X162.135 Y184.666 E40.49531
G1 X161.667 Y184.685 E40.51089
G1 X160.83 Y184.699 E40.53873
G1 X130.77 Y184.7 E41.53853
G1 X128.164 Y184.737 E41.62521
G1 X125.596 Y184.846 E41.7107
G1 X123.094 Y185.023 E41.79413
G1 X120.582 Y185.272 E41.87809
G1 X118.019 Y185.6 E41.96403
G1 X115.534 Y185.991 E42.0477
G1 X113.03 Y186.456 E42.1324
G1 X110.569 Y186.984 E42.21612
G1 X108.114 Y187.588 E42.30021
G1 X105.614 Y188.275 E42.38644
G1 X102.638 Y189.195 E42.49004
G1 X101.768 Y189.434 E42.52005
G1 X100.879 Y189.596 E42.55011
G1 X99.809 Y189.685 E42.58582
G1 X99.17 Y189.7 E42.60708
G1 X72.075 Y189.699 E43.50826
G1 X71.377 Y189.69 E43.53148
G1 X70.476 Y189.639 E43.56149
G1 X69.582 Y189.507 E43.59155
G1 X68.704 Y189.298 E43.62157
G1 X67.847 Y189.011 E43.65163
G1 X67.02 Y188.65 E43.68164
G1 X66.227 Y188.217 E43.71169
G1 X65.476 Y187.716 E43.74172
G1 X64.772 Y187.15 E43.77176
G1 X64.121 Y186.524 E43.8018
G1 X63.528 Y185.843 E43.83184
G1 X62.998 Y185.112 E43.86187
G1 X62.534 Y184.337 E43.89191
G1 X62.14 Y183.524 E43.92196
G1 X61.82 Y182.68 E43.95198
G1 X61.576 Y181.81 E43.98203
G1 X61.41 Y180.922 E44.01208
G1 X61.313 Y179.767 E44.05063
G1 X61.3 Y179.158 E44.07089
G1 X61.3 Y115.67 E46.18251
G1 X61.263 Y113.064 E46.2692
G1 X61.154 Y110.496 E46.35468
G1 X60.977 Y107.994 E46.43811
G1 X60.728 Y105.481 E46.5221
G1 X60.4 Y102.918 E46.60804
G1 X60.009 Y100.433 E46.69171
G1 X59.549 Y97.957 E46.77547
G1 X59.005 Y95.43 E46.86145
G1 X58.408 Y92.991 E46.94496
G1 X57.732 Y90.536 E47.02965
G1 X56.993 Y88.122 E47.11362
G1 X56.135 Y85.581 E47.20282
G1 X55.893 Y84.897 E47.22696
G1 X55.63 Y84.033 E47.25699
G1 X55.444 Y83.149 E47.28704
G1 X55.337 Y82.253 E47.31705
G1 X55.313 Y81.777 E47.33291
